;FLAVOR:Marlin
;TIME:5541
;Filament used: 4.86508m
;Layer height: 0.16
;MINX:73.405
;MINY:60.905
;MINZ:0.2
;MAXX:146.594
;MAXY:159.095
;MAXZ:18.88
;Generated with Cura_SteamEngine 4.9.1
M140 S90
M105
M190 S90
M104 S260
M105
M109 S260
M82 ;absolute extrusion mode
M201 X500.00 Y500.00 Z100.00 E5000.00 ;Setup machine max acceleration
M203 X500.00 Y500.00 Z10.00 E50.00 ;Setup machine max feedrate
M204 P500.00 R1000.00 T500.00 ;Setup Print/Retract/Travel acceleration
M205 X8.00 Y8.00 Z0.40 E5.00 ;Setup Jerk
M220 S100 ;Reset Feedrate
M221 S100 ;Reset Flowrate

G28 ;Home

G92 E0 ;Reset Extruder
G1 Z2.0 F3000 ;Move Z Axis up
G1 X10.1 Y20 Z0.28 F5000.0 ;Move to start position
G1 X10.1 Y200.0 Z0.28 F1500.0 E15 ;Draw the first line
G1 X10.4 Y200.0 Z0.28 F5000.0 ;Move to side a little
G1 X10.4 Y20 Z0.28 F1500.0 E30 ;Draw the second line
G92 E0 ;Reset Extruder
G1 Z2.0 F3000 ;Move Z Axis up

G92 E0
G92 E0
G1 F2700 E-5
;LAYER_COUNT:97
;LAYER:0
M107
G0 F6000 X76.97 Y65.043 Z0.2
;TYPE:SKIRT
G1 F2700 E0
G1 F1200 X77.169 Y64.835 E0.00957
G1 X77.845 Y64.185 E0.04077
G1 X78.369 Y63.752 E0.06337
G1 X78.575 Y63.592 E0.07205
G1 X79.59 Y62.891 E0.11308
G1 X79.721 Y62.811 E0.11818
G1 X80.721 Y62.27 E0.156
G1 X81 Y62.137 E0.16628
G1 X81.863 Y61.769 E0.19748
G1 X82.339 Y61.603 E0.21425
G1 X82.561 Y61.531 E0.22201
G1 X83.771 Y61.213 E0.26362
G1 X84.082 Y61.15 E0.27418
G1 X85.397 Y60.965 E0.31835
G1 X85.498 Y60.957 E0.32172
G1 X86.174 Y60.925 E0.34422
G1 X87.391 Y60.905 E0.38471
G1 X132.939 Y60.907 E1.89964
G1 X133.468 Y60.914 E1.91724
G1 X133.839 Y60.925 E1.92958
G1 X134.158 Y60.94 E1.9402
G1 X135.188 Y61.037 E1.97461
G1 X135.554 Y61.089 E1.98691
G1 X136.476 Y61.261 E2.0181
G1 X137.245 Y61.467 E2.04458
G1 X137.469 Y61.536 E2.05238
G1 X138.63 Y61.967 E2.09357
G1 X138.834 Y62.056 E2.10097
G1 X139.975 Y62.635 E2.14353
G1 X140.174 Y62.751 E2.15119
G1 X141.285 Y63.492 E2.1956
G1 X141.505 Y63.659 E2.20479
G1 X142.49 Y64.504 E2.24796
G1 X142.659 Y64.667 E2.25576
G1 X143.558 Y65.644 E2.29992
G1 X143.732 Y65.858 E2.3091
G1 X144.527 Y66.972 E2.35462
G1 X144.675 Y67.209 E2.36391
G1 X145.31 Y68.377 E2.40813
G1 X145.396 Y68.561 E2.41488
G1 X145.757 Y69.427 E2.44609
G1 X145.931 Y69.94 E2.46411
G1 X146.005 Y70.177 E2.47236
G1 X146.232 Y71.022 E2.50146
G1 X146.286 Y71.26 E2.50958
G1 X146.435 Y72.047 E2.53622
G1 X146.535 Y72.939 E2.56608
G1 X146.558 Y73.262 E2.57685
G1 X146.585 Y73.872 E2.59716
G1 X146.594 Y74.559 E2.62001
G1 X146.593 Y145.449 E4.97782
G1 X146.584 Y146.082 E4.99887
G1 X146.574 Y146.418 E5.01005
G1 X146.562 Y146.686 E5.01898
G1 X146.435 Y147.932 E5.06063
G1 X146.395 Y148.182 E5.06905
G1 X146.096 Y149.513 E5.11443
G1 X146.019 Y149.778 E5.12361
G1 X145.574 Y151.025 E5.16764
G1 X145.481 Y151.243 E5.17553
G1 X144.876 Y152.45 E5.22043
G1 X144.739 Y152.686 E5.22951
G1 X143.993 Y153.807 E5.27429
G1 X143.849 Y153.997 E5.28222
G1 X143.01 Y154.979 E5.32518
G1 X142.808 Y155.189 E5.33487
G1 X142.129 Y155.836 E5.36607
G1 X141.651 Y156.232 E5.38671
G1 X141.45 Y156.389 E5.3952
G1 X140.401 Y157.115 E5.43763
G1 X140.268 Y157.196 E5.44281
G1 X139.279 Y157.73 E5.48019
G1 X139 Y157.863 E5.49047
G1 X138.137 Y158.231 E5.52167
G1 X137.661 Y158.397 E5.53844
G1 X137.439 Y158.469 E5.5462
G1 X136.229 Y158.787 E5.58781
G1 X135.918 Y158.85 E5.59837
G1 X134.603 Y159.035 E5.64254
G1 X134.502 Y159.043 E5.64591
G1 X133.826 Y159.075 E5.66841
G1 X132.609 Y159.095 E5.7089
G1 X87.059 Y159.093 E7.2239
G1 X86.534 Y159.086 E7.24136
G1 X86.171 Y159.075 E7.25344
G1 X85.848 Y159.06 E7.26419
G1 X84.807 Y158.962 E7.29897
G1 X84.442 Y158.91 E7.31123
G1 X83.52 Y158.738 E7.34243
G1 X82.755 Y158.533 E7.36877
G1 X82.531 Y158.464 E7.37657
G1 X81.314 Y158.009 E7.41978
G1 X81.095 Y157.912 E7.42775
G1 X79.982 Y157.341 E7.46935
G1 X79.798 Y157.233 E7.47645
G1 X78.715 Y156.508 E7.51979
G1 X78.495 Y156.341 E7.52898
G1 X77.509 Y155.496 E7.57217
G1 X77.339 Y155.332 E7.58003
G1 X76.438 Y154.35 E7.62435
G1 X76.265 Y154.137 E7.63348
G1 X75.479 Y153.039 E7.67839
G1 X75.33 Y152.801 E7.68773
G1 X74.679 Y151.601 E7.73314
G1 X74.593 Y151.416 E7.73992
G1 X74.234 Y150.549 E7.77114
G1 X74.063 Y150.042 E7.78893
G1 X73.99 Y149.807 E7.79712
G1 X73.758 Y148.935 E7.82713
G1 X73.703 Y148.688 E7.83554
G1 X73.534 Y147.735 E7.86774
G1 X73.522 Y147.644 E7.87079
G1 X73.43 Y146.421 E7.91158
G1 X73.407 Y145.246 E7.95067
G1 X73.405 Y145.031 E7.95782
G1 X73.407 Y74.55 E10.30203
G1 X73.416 Y73.918 E10.32305
G1 X73.426 Y73.585 E10.33413
G1 X73.438 Y73.316 E10.34309
G1 X73.565 Y72.068 E10.38481
G1 X73.605 Y71.818 E10.39323
G1 X73.904 Y70.487 E10.4386
G1 X73.981 Y70.222 E10.44778
G1 X74.426 Y68.975 E10.49182
G1 X74.519 Y68.757 E10.4997
G1 X75.124 Y67.55 E10.54461
G1 X75.261 Y67.314 E10.55368
G1 X76.007 Y66.193 E10.59847
G1 X76.151 Y66.003 E10.6064
G1 X76.97 Y65.043 E10.64837
G0 F6000 X77.259 Y65.319
G1 F1200 X77.458 Y65.111 E10.65794
G1 X78.123 Y64.474 E10.68857
G1 X78.615 Y64.067 E10.70981
G1 X78.821 Y63.907 E10.71849
G1 X79.798 Y63.233 E10.75796
G1 X79.929 Y63.153 E10.76307
G1 X80.893 Y62.631 E10.79953
G1 X81.172 Y62.498 E10.80981
G1 X82.019 Y62.138 E10.84042
G1 X82.463 Y61.983 E10.85606
G1 X82.685 Y61.911 E10.86382
G1 X83.85 Y61.605 E10.90389
G1 X84.161 Y61.542 E10.91444
G1 X85.429 Y61.364 E10.95703
G1 X85.53 Y61.356 E10.9604
G1 X86.181 Y61.325 E10.98207
G1 X87.391 Y61.305 E11.02232
G1 X132.933 Y61.307 E12.53706
G1 X133.462 Y61.314 E12.55465
G1 X133.82 Y61.325 E12.56657
G1 X134.139 Y61.34 E12.57719
G1 X135.132 Y61.433 E12.61036
G1 X135.498 Y61.485 E12.62266
G1 X136.403 Y61.654 E12.65328
G1 X137.127 Y61.85 E12.67822
G1 X137.351 Y61.919 E12.68602
G1 X138.47 Y62.333 E12.7257
G1 X138.674 Y62.422 E12.73311
G1 X139.773 Y62.98 E12.7741
G1 X139.972 Y63.096 E12.78176
G1 X141.043 Y63.811 E12.82459
G1 X141.263 Y63.978 E12.83378
G1 X142.213 Y64.791 E12.87537
G1 X142.382 Y64.954 E12.88318
G1 X143.247 Y65.897 E12.92574
G1 X143.421 Y66.111 E12.93491
G1 X144.188 Y67.183 E12.97875
G1 X144.336 Y67.42 E12.98804
G1 X144.948 Y68.547 E13.0307
G1 X145.034 Y68.731 E13.03745
G1 X145.387 Y69.581 E13.06807
G1 X145.549 Y70.06 E13.08488
G1 X145.623 Y70.297 E13.09314
G1 X145.842 Y71.111 E13.12118
G1 X145.896 Y71.349 E13.1293
G1 X146.04 Y72.108 E13.15499
G1 X146.136 Y72.967 E13.18374
G1 X146.159 Y73.29 E13.19451
G1 X146.185 Y73.879 E13.21412
G1 X146.194 Y74.559 E13.23674
G1 X146.193 Y145.444 E15.59438
G1 X146.184 Y146.077 E15.61544
G1 X146.174 Y146.4 E15.62619
G1 X146.162 Y146.668 E15.63511
G1 X146.04 Y147.869 E15.67526
G1 X146 Y148.119 E15.68368
G1 X145.712 Y149.402 E15.72742
G1 X145.635 Y149.667 E15.73659
G1 X145.206 Y150.868 E15.77901
G1 X145.113 Y151.086 E15.78689
G1 X144.53 Y152.249 E15.83016
G1 X144.393 Y152.485 E15.83924
G1 X143.674 Y153.566 E15.88242
G1 X143.53 Y153.756 E15.89035
G1 X142.721 Y154.701 E15.93173
G1 X142.519 Y154.911 E15.94142
G1 X141.853 Y155.547 E15.97205
G1 X141.405 Y155.917 E15.99137
G1 X141.204 Y156.074 E15.99985
G1 X140.193 Y156.773 E16.04073
G1 X140.06 Y156.854 E16.04591
G1 X139.107 Y157.369 E16.08194
G1 X138.828 Y157.502 E16.09222
G1 X137.981 Y157.862 E16.12283
G1 X137.537 Y158.017 E16.13847
G1 X137.315 Y158.089 E16.14624
G1 X136.15 Y158.395 E16.1863
G1 X135.839 Y158.458 E16.19685
G1 X134.571 Y158.636 E16.23944
G1 X134.47 Y158.644 E16.24281
G1 X133.819 Y158.675 E16.26449
G1 X132.609 Y158.695 E16.30474
G1 X87.065 Y158.693 E17.81954
G1 X86.54 Y158.686 E17.837
G1 X86.189 Y158.676 E17.84868
G1 X85.866 Y158.661 E17.85943
G1 X84.863 Y158.566 E17.89294
G1 X84.498 Y158.514 E17.90521
G1 X83.593 Y158.345 E17.93583
G1 X82.873 Y158.15 E17.96064
G1 X82.649 Y158.081 E17.96843
G1 X81.476 Y157.643 E18.01008
G1 X81.257 Y157.546 E18.01804
G1 X80.184 Y156.996 E18.05815
G1 X80 Y156.888 E18.06524
G1 X78.957 Y156.189 E18.107
G1 X78.737 Y156.022 E18.11619
G1 X77.787 Y155.208 E18.1578
G1 X77.617 Y155.044 E18.16566
G1 X76.748 Y154.098 E18.20838
G1 X76.575 Y153.885 E18.21751
G1 X75.818 Y152.827 E18.26078
G1 X75.669 Y152.589 E18.27012
G1 X75.042 Y151.432 E18.31389
G1 X74.956 Y151.247 E18.32067
G1 X74.604 Y150.396 E18.3513
G1 X74.445 Y149.924 E18.36787
G1 X74.372 Y149.689 E18.37605
G1 X74.148 Y148.848 E18.405
G1 X74.093 Y148.601 E18.41341
G1 X73.931 Y147.683 E18.44442
G1 X73.919 Y147.592 E18.44747
G1 X73.83 Y146.413 E18.4868
G1 X73.807 Y145.238 E18.52589
G1 X73.805 Y145.031 E18.53277
G1 X73.807 Y74.556 E20.87678
G1 X73.816 Y73.924 E20.8978
G1 X73.826 Y73.603 E20.90848
G1 X73.838 Y73.334 E20.91744
G1 X73.96 Y72.131 E20.95766
G1 X74 Y71.881 E20.96608
G1 X74.288 Y70.598 E21.00981
G1 X74.365 Y70.333 E21.01899
G1 X74.794 Y69.132 E21.06141
G1 X74.887 Y68.914 E21.06929
G1 X75.47 Y67.751 E21.11256
G1 X75.607 Y67.515 E21.12164
G1 X76.326 Y66.434 E21.16482
G1 X76.47 Y66.244 E21.17275
G1 X77.259 Y65.319 E21.21318
G0 F6000 X77.548 Y65.596
G1 F1200 X77.747 Y65.388 E21.22276
G1 X78.399 Y64.763 E21.2528
G1 X78.86 Y64.383 E21.27267
G1 X79.066 Y64.223 E21.28134
G1 X80.007 Y63.574 E21.31936
G1 X80.138 Y63.494 E21.32447
G1 X81.065 Y62.992 E21.35953
G1 X81.344 Y62.859 E21.36981
G1 X82.586 Y62.364 E21.41428
G1 X82.808 Y62.292 E21.42204
G1 X83.93 Y61.997 E21.46063
G1 X84.241 Y61.934 E21.47118
G1 X85.461 Y61.763 E21.51216
G1 X85.562 Y61.755 E21.51553
G1 X86.188 Y61.725 E21.53637
G1 X87.391 Y61.705 E21.57639
G1 X132.928 Y61.707 E23.09096
G1 X133.457 Y61.714 E23.10855
G1 X133.801 Y61.724 E23.12
G1 X134.12 Y61.739 E23.13062
G1 X135.076 Y61.829 E23.16256
G1 X135.442 Y61.881 E23.17485
G1 X136.329 Y62.048 E23.20487
G1 X137.01 Y62.232 E23.22834
G1 X137.234 Y62.301 E23.23613
G1 X138.31 Y62.7 E23.2743
G1 X138.514 Y62.789 E23.2817
G1 X139.572 Y63.326 E23.32117
G1 X139.771 Y63.442 E23.32883
G1 X140.801 Y64.13 E23.37002
G1 X141.021 Y64.297 E23.37921
G1 X141.935 Y65.079 E23.41922
G1 X142.104 Y65.242 E23.42703
G1 X142.937 Y66.149 E23.46799
G1 X143.111 Y66.363 E23.47716
G1 X143.849 Y67.395 E23.51936
G1 X143.997 Y67.632 E23.52865
G1 X144.586 Y68.716 E23.56968
G1 X144.672 Y68.9 E23.57644
G1 X145.017 Y69.734 E23.60646
G1 X145.167 Y70.179 E23.62208
G1 X145.241 Y70.416 E23.63034
G1 X145.452 Y71.199 E23.65731
G1 X145.506 Y71.437 E23.66542
G1 X145.644 Y72.169 E23.6902
G1 X145.737 Y72.996 E23.71788
G1 X145.76 Y73.319 E23.72865
G1 X145.785 Y73.885 E23.74749
G1 X145.794 Y74.559 E23.76991
G1 X145.793 Y145.438 E26.12736
G1 X145.784 Y146.071 E26.14841
G1 X145.775 Y146.382 E26.15876
G1 X145.763 Y146.65 E26.16768
G1 X145.645 Y147.806 E26.20633
G1 X145.605 Y148.056 E26.21475
G1 X145.328 Y149.29 E26.25682
G1 X145.251 Y149.555 E26.266
G1 X144.838 Y150.711 E26.30683
G1 X144.745 Y150.929 E26.31471
G1 X144.184 Y152.048 E26.35634
G1 X144.047 Y152.284 E26.36542
G1 X143.355 Y153.324 E26.40697
G1 X143.211 Y153.514 E26.4149
G1 X142.433 Y154.424 E26.45472
G1 X142.231 Y154.634 E26.46441
G1 X141.577 Y155.257 E26.49445
G1 X141.159 Y155.601 E26.51245
G1 X140.958 Y155.758 E26.52094
G1 X139.985 Y156.432 E26.56031
G1 X139.852 Y156.513 E26.56548
G1 X138.935 Y157.008 E26.60014
G1 X138.656 Y157.141 E26.61042
G1 X137.414 Y157.636 E26.65489
G1 X137.192 Y157.708 E26.66266
G1 X136.07 Y158.003 E26.70124
G1 X135.759 Y158.066 E26.7118
G1 X134.539 Y158.237 E26.75277
G1 X134.438 Y158.245 E26.75614
G1 X133.812 Y158.275 E26.77698
G1 X132.609 Y158.295 E26.817
G1 X87.07 Y158.293 E28.33163
G1 X86.545 Y158.286 E28.3491
G1 X86.208 Y158.276 E28.36031
G1 X85.885 Y158.261 E28.37107
G1 X84.919 Y158.17 E28.40334
G1 X84.554 Y158.118 E28.4156
G1 X83.667 Y157.951 E28.44562
G1 X82.99 Y157.768 E28.46895
G1 X82.766 Y157.699 E28.47674
G1 X81.638 Y157.277 E28.5168
G1 X81.419 Y157.18 E28.52476
G1 X80.387 Y156.651 E28.56334
G1 X80.203 Y156.543 E28.57043
G1 X79.199 Y155.87 E28.61063
G1 X78.979 Y155.703 E28.61982
G1 X78.064 Y154.92 E28.65988
G1 X77.894 Y154.756 E28.66773
G1 X77.059 Y153.846 E28.70881
G1 X76.886 Y153.633 E28.71794
G1 X76.158 Y152.615 E28.75956
G1 X76.009 Y152.377 E28.7689
G1 X75.405 Y151.264 E28.81102
G1 X75.319 Y151.079 E28.8178
G1 X74.974 Y150.244 E28.84785
G1 X74.827 Y149.805 E28.86325
G1 X74.754 Y149.57 E28.87144
G1 X74.539 Y148.761 E28.89928
G1 X74.484 Y148.514 E28.90769
G1 X74.328 Y147.631 E28.93752
G1 X74.316 Y147.54 E28.94057
G1 X74.23 Y146.406 E28.9784
G1 X74.207 Y145.231 E29.01748
G1 X74.205 Y145.031 E29.02414
G1 X74.207 Y74.562 E31.36795
G1 X74.216 Y73.93 E31.38897
G1 X74.225 Y73.62 E31.39928
G1 X74.237 Y73.351 E31.40824
G1 X74.355 Y72.194 E31.44692
G1 X74.395 Y71.944 E31.45534
G1 X74.672 Y70.71 E31.49741
G1 X74.749 Y70.445 E31.50658
G1 X75.162 Y69.289 E31.54741
G1 X75.255 Y69.071 E31.5553
G1 X75.816 Y67.952 E31.59693
G1 X75.953 Y67.716 E31.60601
G1 X76.645 Y66.676 E31.64755
G1 X76.789 Y66.486 E31.65548
G1 X77.548 Y65.596 E31.69439
G1 F2700 E26.69439
;MESH:Drawer_6.stl
G0 F6000 X83.76 Y73.669
G0 X84.825 Y74.024
G0 X86.787 Y145.711
G0 X133.338 Y145.895
;TYPE:WALL-INNER
G1 F2700 E31.69439
G1 F1200 X133.177 Y145.895 E31.69974
G1 X86.607 Y145.893 E33.24867
G1 X86.605 Y145.886 E33.24891
G1 X86.606 Y74.318 E35.62927
G1 X86.606 Y74.156 E35.63466
G1 X86.662 Y74.105 E35.63718
G1 X86.824 Y74.105 E35.64256
G1 X133.386 Y74.107 E37.19122
G1 X133.394 Y74.13 E37.19203
G1 X133.394 Y145.68 E39.5718
G1 X133.394 Y145.841 E39.57715
G1 X133.385 Y145.885 E39.57864
G1 X133.338 Y145.895 E39.58024
G0 F6000 X133.379 Y146.295
G1 F1200 X86.578 Y146.294 E41.13685
G1 X86.42 Y146.265 E41.14219
G1 X86.256 Y146.14 E41.14905
G1 X86.205 Y145.933 E41.15614
G1 X86.206 Y74.116 E43.54479
G1 X86.264 Y73.846 E43.55397
G1 X86.363 Y73.76 E43.55833
G1 X86.578 Y73.715 E43.56564
G1 X86.621 Y73.705 E43.56711
G1 X133.418 Y73.706 E45.12358
G1 X133.584 Y73.737 E45.1292
G1 X133.713 Y73.824 E45.13437
G1 X133.794 Y74.064 E45.1428
G1 X133.794 Y145.883 E47.53151
G1 X133.736 Y146.154 E47.54072
G1 X133.637 Y146.24 E47.54509
G1 X133.469 Y146.275 E47.55079
G1 X133.425 Y146.284 E47.55229
G1 X133.379 Y146.295 E47.55386
G0 F6000 X133.421 Y146.695
G1 F1200 X86.544 Y146.694 E49.113
G1 X86.265 Y146.643 E49.12243
G1 X85.987 Y146.455 E49.13359
G1 X85.891 Y146.315 E49.13924
G1 X85.812 Y146.049 E49.14847
G1 X85.805 Y145.945 E49.15193
G1 X85.806 Y74.074 E51.54237
G1 X85.89 Y73.685 E51.55561
G1 X85.981 Y73.553 E51.56094
G1 X86.187 Y73.389 E51.5697
G1 X86.279 Y73.37 E51.57282
G1 X86.579 Y73.305 E51.58303
G1 X133.455 Y73.306 E53.14214
G1 X133.738 Y73.359 E53.15171
G1 X134.008 Y73.54 E53.16252
G1 X134.148 Y73.766 E53.17137
G1 X134.194 Y74.029 E53.18025
G1 X134.194 Y145.925 E55.57152
G1 X134.11 Y146.315 E55.58479
G1 X134.019 Y146.447 E55.59012
G1 X133.813 Y146.611 E55.59888
G1 X133.721 Y146.63 E55.602
G1 X133.421 Y146.695 E55.61221
G0 F6000 X133.443 Y147.095
G1 F1200 X86.533 Y147.094 E57.17244
G1 X86.382 Y147.084 E57.17748
G1 X86.119 Y147.019 E57.18649
G1 X85.877 Y146.891 E57.19559
G1 X85.723 Y146.754 E57.20245
G1 X85.684 Y146.72 E57.20417
G1 X85.526 Y146.49 E57.21345
G1 X85.416 Y146.119 E57.22632
G1 X85.414 Y146.077 E57.22772
G1 X85.405 Y145.96 E57.23162
G1 X85.406 Y74.054 E59.62322
G1 X85.443 Y73.735 E59.63391
G1 X85.534 Y73.496 E59.64241
G1 X85.684 Y73.278 E59.65121
G1 X85.987 Y73.037 E59.66409
G1 X86.235 Y72.943 E59.67291
G1 X86.557 Y72.905 E59.6837
G1 X133.467 Y72.906 E61.24393
G1 X133.616 Y72.916 E61.24889
G1 X133.881 Y72.982 E61.25798
G1 X134.127 Y73.111 E61.26722
G1 X134.313 Y73.276 E61.27549
G1 X134.474 Y73.51 E61.28493
G1 X134.529 Y73.638 E61.28957
G1 X134.586 Y73.89 E61.29816
G1 X134.594 Y74.02 E61.30249
G1 X134.594 Y145.945 E63.69473
G1 X134.557 Y146.265 E63.70544
G1 X134.466 Y146.504 E63.71395
G1 X134.316 Y146.722 E63.72275
G1 X134.013 Y146.963 E63.73563
G1 X133.765 Y147.057 E63.74445
G1 X133.443 Y147.095 E63.75523
G0 F6000 X133.465 Y147.495
G1 F1200 X86.522 Y147.494 E65.31656
G1 X86.323 Y147.481 E65.32319
G1 X85.973 Y147.395 E65.33518
G1 X85.646 Y147.221 E65.3475
G1 X85.384 Y146.988 E65.35916
G1 X85.356 Y146.947 E65.36081
G1 X85.175 Y146.685 E65.37141
G1 X85.16 Y146.648 E65.37273
G1 X85.089 Y146.485 E65.37865
G1 X85.019 Y146.176 E65.38919
G1 X85.007 Y145.988 E65.39545
G1 X85.005 Y145.973 E65.39595
G1 X85.006 Y74.033 E67.78869
G1 X85.052 Y73.64 E67.80185
G1 X85.177 Y73.309 E67.81362
G1 X85.383 Y73.01 E67.82569
G1 X85.614 Y72.804 E67.83599
G1 X85.806 Y72.678 E67.84363
G1 X86.094 Y72.57 E67.85386
G1 X86.14 Y72.552 E67.8555
G1 X86.187 Y72.547 E67.85707
