;FLAVOR:Marlin
;TIME:11069
;Filament used: 9.00912m
;Layer height: 0.16
;MINX:70.803
;MINY:58.632
;MINZ:0.2
;MAXX:148.603
;MAXY:161.432
;MAXZ:22.12
;Generated with Cura_SteamEngine 4.9.1
M140 S90
M105
M190 S90
M104 S260
M105
M109 S260
M82 ;absolute extrusion mode
M201 X500.00 Y500.00 Z100.00 E5000.00 ;Setup machine max acceleration
M203 X500.00 Y500.00 Z10.00 E50.00 ;Setup machine max feedrate
M204 P500.00 R1000.00 T500.00 ;Setup Print/Retract/Travel acceleration
M205 X8.00 Y8.00 Z0.40 E5.00 ;Setup Jerk
M220 S100 ;Reset Feedrate
M221 S100 ;Reset Flowrate

G28 ;Home

G92 E0 ;Reset Extruder
G1 Z2.0 F3000 ;Move Z Axis up
G1 X10.1 Y20 Z0.28 F5000.0 ;Move to start position
G1 X10.1 Y200.0 Z0.28 F1500.0 E15 ;Draw the first line
G1 X10.4 Y200.0 Z0.28 F5000.0 ;Move to side a little
G1 X10.4 Y20 Z0.28 F1500.0 E30 ;Draw the second line
G92 E0 ;Reset Extruder
G1 Z2.0 F3000 ;Move Z Axis up

G92 E0
G92 E0
G1 F2700 E-5
;LAYER_COUNT:131
;LAYER:0
M107
G0 F6000 X76.024 Y65.344 Z0.2
;TYPE:SKIRT
G1 F2700 E0
G1 F1200 X76.914 Y64.387 E0.04347
G1 X76.958 Y64.345 E0.04549
G1 X77.39 Y63.954 E0.06487
G1 X77.552 Y63.815 E0.07197
G1 X78.459 Y63.115 E0.11008
G1 X78.741 Y62.92 E0.12148
G1 X79.766 Y62.291 E0.16148
G1 X79.84 Y62.251 E0.16428
G1 X80.652 Y61.855 E0.19432
G1 X80.864 Y61.762 E0.20202
G1 X81.513 Y61.501 E0.22529
G1 X81.82 Y61.389 E0.23616
G1 X82.922 Y61.051 E0.2745
G1 X83.85 Y60.819 E0.30631
G1 X84.598 Y60.643 E0.33187
G1 X87.024 Y60.002 E0.41533
G1 X88.766 Y59.478 E0.47583
G1 X90.123 Y59.082 E0.52285
G1 X91.033 Y58.858 E0.55402
G1 X91.96 Y58.713 E0.58523
G1 X92.87 Y58.647 E0.61557
G1 X93.199 Y58.637 E0.62652
G1 X93.533 Y58.632 E0.63763
G1 X98.496 Y58.632 E0.8027
G1 X99.352 Y58.643 E0.83117
G1 X99.956 Y58.668 E0.85128
G1 X100.327 Y58.699 E0.86366
G1 X100.859 Y58.752 E0.88144
G1 X103.403 Y58.968 E0.96636
G1 X105.943 Y59.111 E1.05098
G1 X108.467 Y59.182 E1.13496
G1 X110.99 Y59.182 E1.21887
G1 X113.486 Y59.11 E1.30193
G1 X115.988 Y58.969 E1.38527
G1 X118.551 Y58.75 E1.47083
G1 X118.937 Y58.711 E1.48373
G1 X119.258 Y58.683 E1.49445
G1 X119.904 Y58.645 E1.51597
G1 X120.223 Y58.636 E1.52659
G1 X120.533 Y58.632 E1.5369
G1 X125.653 Y58.633 E1.70719
G1 X126.355 Y58.643 E1.73054
G1 X127.291 Y58.696 E1.76172
G1 X127.884 Y58.772 E1.78161
G1 X128.804 Y58.954 E1.8128
G1 X129.442 Y59.129 E1.83481
G1 X130.257 Y59.38 E1.86317
G1 X132.684 Y60.086 E1.94724
G1 X135.941 Y60.921 E2.05907
G1 X136.173 Y60.976 E2.067
G1 X136.834 Y61.155 E2.08978
G1 X137.34 Y61.309 E2.10737
G1 X138.225 Y61.62 E2.13857
G1 X138.933 Y61.933 E2.16431
G1 X139.094 Y62.011 E2.17026
G1 X140.161 Y62.603 E2.21085
G1 X140.488 Y62.809 E2.2237
G1 X141.26 Y63.342 E2.25491
G1 X141.632 Y63.636 E2.27068
G1 X141.868 Y63.831 E2.28086
G1 X142.564 Y64.459 E2.31204
G1 X143.005 Y64.917 E2.33318
G1 X143.212 Y65.145 E2.34343
G1 X143.812 Y65.866 E2.37462
G1 X144.122 Y66.292 E2.39215
G1 X144.32 Y66.579 E2.40374
G1 X144.888 Y67.495 E2.43959
G1 X144.929 Y67.569 E2.44241
G1 X145.38 Y68.481 E2.47625
G1 X145.473 Y68.693 E2.48395
G1 X145.736 Y69.347 E2.50739
G1 X145.842 Y69.638 E2.51769
G1 X146.125 Y70.532 E2.54888
G1 X146.238 Y70.992 E2.56464
G1 X146.289 Y71.219 E2.57237
G1 X146.441 Y72.036 E2.60001
G1 X146.464 Y72.193 E2.60529
G1 X146.548 Y72.947 E2.63052
G1 X146.599 Y73.61 E2.65264
G1 X146.831 Y76.171 E2.73817
G1 X147.128 Y78.676 E2.82207
G1 X147.493 Y81.144 E2.90505
G1 X148.122 Y84.601 E3.02192
G1 X148.376 Y85.86 E3.06463
G1 X148.522 Y86.786 E3.09581
G1 X148.588 Y87.701 E3.12633
G1 X148.598 Y88.031 E3.13731
G1 X148.603 Y88.362 E3.14832
G1 X148.603 Y93.469 E3.31818
G1 X148.593 Y94.184 E3.34196
G1 X148.54 Y95.12 E3.37314
G1 X148.462 Y95.731 E3.39363
G1 X148.396 Y96.151 E3.40777
G1 X148.028 Y98.736 E3.49461
G1 X147.745 Y101.218 E3.5777
G1 X147.531 Y103.733 E3.66165
G1 X147.39 Y106.215 E3.74434
G1 X147.318 Y108.772 E3.82942
G1 X147.318 Y111.261 E3.9122
G1 X147.39 Y113.791 E3.99638
G1 X147.533 Y116.331 E4.081
G1 X147.742 Y118.791 E4.16311
G1 X148.028 Y121.311 E4.24747
G1 X148.399 Y123.913 E4.33488
G1 X148.479 Y124.453 E4.35304
G1 X148.588 Y125.701 E4.39471
G1 X148.598 Y126.034 E4.40579
G1 X148.603 Y126.362 E4.4167
G1 X148.603 Y131.469 E4.58656
G1 X148.593 Y132.184 E4.61034
G1 X148.54 Y133.12 E4.64152
G1 X148.38 Y134.192 E4.67757
G1 X147.839 Y136.893 E4.76919
G1 X147.423 Y139.323 E4.85119
G1 X147.066 Y141.831 E4.93545
G1 X146.78 Y144.347 E5.01967
G1 X146.584 Y146.606 E5.09509
G1 X146.544 Y147.15 E5.11323
G1 X146.446 Y148.01 E5.14202
G1 X146.343 Y148.596 E5.16181
G1 X146.297 Y148.822 E5.16948
G1 X145.977 Y150.034 E5.21117
G1 X145.878 Y150.338 E5.2218
G1 X145.55 Y151.217 E5.25301
G1 X145.303 Y151.759 E5.27282
G1 X145.198 Y151.974 E5.28078
G1 X144.636 Y152.986 E5.31928
G1 X144.465 Y153.259 E5.32999
G1 X143.662 Y154.379 E5.37583
G1 X143.421 Y154.674 E5.3885
G1 X142.52 Y155.65 E5.43268
G1 X142.47 Y155.698 E5.43498
G1 X142.04 Y156.089 E5.45431
G1 X141.879 Y156.228 E5.46139
G1 X140.947 Y156.95 E5.5006
G1 X140.665 Y157.145 E5.512
G1 X139.872 Y157.645 E5.54318
G1 X139.07 Y158.061 E5.57323
G1 X138.822 Y158.177 E5.58234
G1 X137.904 Y158.557 E5.61538
G1 X137.647 Y158.65 E5.62447
G1 X136.971 Y158.87 E5.64812
G1 X136.63 Y158.969 E5.65993
G1 X136.216 Y159.08 E5.67419
G1 X135.406 Y159.281 E5.70194
G1 X134.76 Y159.433 E5.72402
G1 X132.394 Y160.059 E5.80542
G1 X130.64 Y160.586 E5.86633
G1 X129.283 Y160.982 E5.91335
G1 X128.373 Y161.206 E5.94452
G1 X127.446 Y161.351 E5.97573
G1 X126.536 Y161.417 E6.00607
G1 X126.207 Y161.427 E6.01702
G1 X125.873 Y161.432 E6.02813
G1 X120.752 Y161.431 E6.19845
G1 X120.055 Y161.421 E6.22164
G1 X119.479 Y161.398 E6.24081
G1 X119.076 Y161.365 E6.25426
G1 X118.533 Y161.311 E6.27241
G1 X116.003 Y161.096 E6.35686
G1 X113.464 Y160.953 E6.44144
G1 X110.939 Y160.882 E6.52546
G1 X108.415 Y160.882 E6.60941
G1 X105.92 Y160.954 E6.69243
G1 X103.417 Y161.095 E6.77581
G1 X100.855 Y161.314 E6.86133
G1 X100.472 Y161.353 E6.87414
G1 X100.152 Y161.381 E6.88482
G1 X99.502 Y161.419 E6.90648
G1 X99.182 Y161.428 E6.91712
G1 X98.873 Y161.432 E6.9274
G1 X93.753 Y161.431 E7.09769
G1 X93.051 Y161.421 E7.12104
G1 X92.115 Y161.368 E7.15223
G1 X91.187 Y161.235 E7.18341
G1 X89.999 Y160.944 E7.22409
G1 X89.136 Y160.681 E7.25409
G1 X86.722 Y159.978 E7.33772
G1 X83.47 Y159.144 E7.44938
G1 X83.18 Y159.075 E7.4593
G1 X82.583 Y158.914 E7.47986
G1 X82.129 Y158.778 E7.49562
G1 X81.243 Y158.471 E7.52681
G1 X80.499 Y158.145 E7.55383
G1 X80.319 Y158.058 E7.56048
G1 X79.237 Y157.458 E7.60163
G1 X78.912 Y157.253 E7.61441
G1 X78.141 Y156.719 E7.6456
G1 X77.746 Y156.405 E7.66239
G1 X77.496 Y156.197 E7.6732
G1 X76.801 Y155.567 E7.7044
G1 X76.337 Y155.079 E7.7268
G1 X76.157 Y154.878 E7.73577
G1 X75.323 Y153.825 E7.78045
G1 X75.158 Y153.588 E7.79005
G1 X74.475 Y152.469 E7.83366
G1 X74.342 Y152.219 E7.84308
G1 X73.848 Y151.158 E7.882
G1 X73.739 Y150.887 E7.89172
G1 X73.369 Y149.809 E7.92963
G1 X73.292 Y149.54 E7.93893
G1 X73.02 Y148.342 E7.97979
G1 X72.977 Y148.087 E7.98839
G1 X72.855 Y147.09 E8.0218
G1 X72.802 Y146.391 E8.04512
G1 X72.575 Y143.893 E8.12854
G1 X72.277 Y141.382 E8.21264
G1 X71.915 Y138.927 E8.29518
G1 X71.285 Y135.473 E8.41196
G1 X71.029 Y134.199 E8.45518
G1 X70.884 Y133.273 E8.48635
G1 X70.818 Y132.364 E8.51666
G1 X70.808 Y132.037 E8.52755
G1 X70.803 Y131.703 E8.53866
G1 X70.803 Y126.594 E8.70858
G1 X70.813 Y125.878 E8.7324
G1 X70.866 Y124.942 E8.76358
G1 X70.945 Y124.324 E8.7843
G1 X71.014 Y123.887 E8.79902
G1 X71.378 Y121.328 E8.88499
G1 X71.661 Y118.846 E8.96807
G1 X71.875 Y116.331 E9.05202
G1 X72.016 Y113.849 E9.13471
G1 X72.088 Y111.292 E9.21979
G1 X72.088 Y108.803 E9.30257
G1 X72.016 Y106.271 E9.38682
G1 X71.873 Y103.734 E9.47134
G1 X71.664 Y101.269 E9.55362
G1 X71.379 Y98.761 E9.63757
G1 X71.007 Y96.151 E9.72526
G1 X70.969 Y95.901 E9.73367
G1 X70.919 Y95.545 E9.74562
G1 X70.817 Y94.33 E9.78618
G1 X70.808 Y94.016 E9.79663
G1 X70.803 Y93.703 E9.80704
G1 X70.803 Y88.594 E9.97696
G1 X70.813 Y87.879 E10.00075
G1 X70.866 Y86.943 E10.03193
G1 X71.026 Y85.876 E10.06781
G1 X71.562 Y83.196 E10.15872
G1 X71.984 Y80.727 E10.24203
G1 X72.34 Y78.22 E10.32625
G1 X72.622 Y75.73 E10.40959
G1 X72.795 Y73.762 E10.4753
G1 X72.864 Y72.885 E10.50456
G1 X73.01 Y71.763 E10.54219
G1 X73.049 Y71.55 E10.54939
G1 X73.34 Y70.346 E10.59059
G1 X73.461 Y69.946 E10.60449
G1 X73.771 Y69.061 E10.63568
G1 X74.059 Y68.4 E10.65966
G1 X74.17 Y68.167 E10.66825
G1 X74.812 Y67.006 E10.71237
G1 X74.975 Y66.749 E10.72249
G1 X75.779 Y65.641 E10.76803
G1 X76.024 Y65.344 E10.78083
G0 F6000 X76.332 Y65.599
G1 F1200 X77.19 Y64.676 E10.82275
G1 X77.234 Y64.634 E10.82477
G1 X77.651 Y64.257 E10.84347
G1 X77.813 Y64.118 E10.85057
G1 X78.686 Y63.444 E10.88725
G1 X78.968 Y63.249 E10.89865
G1 X79.957 Y62.643 E10.93723
G1 X80.031 Y62.603 E10.94003
G1 X80.813 Y62.221 E10.96898
G1 X81.025 Y62.128 E10.97668
G1 X81.65 Y61.877 E10.99908
G1 X81.957 Y61.765 E11.00995
G1 X83.019 Y61.439 E11.04689
G1 X84.093 Y61.172 E11.0837
G1 X84.72 Y61.025 E11.10512
G1 X87.124 Y60.389 E11.18783
G1 X88.878 Y59.862 E11.24875
G1 X90.235 Y59.466 E11.29576
G1 X91.129 Y59.247 E11.32638
G1 X92.039 Y59.106 E11.357
G1 X92.882 Y59.047 E11.38511
G1 X93.211 Y59.037 E11.39606
G1 X93.533 Y59.032 E11.40677
G1 X98.496 Y59.032 E11.57184
G1 X99.346 Y59.043 E11.60011
G1 X99.93 Y59.067 E11.61955
G1 X100.288 Y59.097 E11.6315
G1 X100.783 Y59.146 E11.64805
G1 X103.417 Y59.371 E11.73597
G1 X105.91 Y59.511 E11.81902
G1 X108.456 Y59.582 E11.90373
G1 X110.967 Y59.582 E11.98725
G1 X113.518 Y59.509 E12.07213
G1 X116.046 Y59.366 E12.15635
G1 X118.577 Y59.149 E12.24084
G1 X118.972 Y59.109 E12.25404
G1 X119.293 Y59.081 E12.26476
G1 X119.915 Y59.045 E12.28548
G1 X120.234 Y59.036 E12.2961
G1 X120.533 Y59.032 E12.30604
G1 X125.647 Y59.033 E12.47613
G1 X126.349 Y59.043 E12.49949
G1 X127.268 Y59.096 E12.5301
G1 X127.823 Y59.167 E12.54871
G1 X128.726 Y59.347 E12.57934
G1 X129.324 Y59.511 E12.59996
G1 X130.155 Y59.766 E12.62887
G1 X132.598 Y60.478 E12.71351
G1 X135.793 Y61.297 E12.82321
G1 X136.081 Y61.365 E12.83305
G1 X136.717 Y61.537 E12.85496
G1 X137.223 Y61.691 E12.87256
G1 X138.092 Y61.997 E12.9032
G1 X138.759 Y62.293 E12.92747
G1 X138.92 Y62.371 E12.93342
G1 X139.948 Y62.941 E12.97252
G1 X140.275 Y63.147 E12.98537
G1 X141.377 Y63.945 E13.03062
G1 X141.613 Y64.14 E13.04081
G1 X142.296 Y64.756 E13.0714
G1 X142.709 Y65.186 E13.09123
G1 X142.916 Y65.414 E13.10147
G1 X143.505 Y66.122 E13.1321
G1 X143.793 Y66.52 E13.14844
G1 X143.991 Y66.807 E13.16004
G1 X144.538 Y67.689 E13.19456
G1 X144.579 Y67.763 E13.19737
G1 X145.014 Y68.642 E13.22999
G1 X145.107 Y68.854 E13.23769
G1 X145.36 Y69.484 E13.26027
G1 X145.466 Y69.775 E13.27057
G1 X145.848 Y71.079 E13.31577
G1 X145.899 Y71.306 E13.3235
G1 X146.045 Y72.094 E13.35016
G1 X146.068 Y72.251 E13.35544
G1 X146.149 Y72.977 E13.37973
G1 X146.197 Y73.608 E13.40078
G1 X146.434 Y76.218 E13.48795
G1 X146.735 Y78.75 E13.57275
G1 X147.094 Y81.185 E13.65462
G1 X147.733 Y84.694 E13.77325
G1 X147.984 Y85.939 E13.81549
G1 X148.126 Y86.848 E13.84609
G1 X148.188 Y87.713 E13.87493
G1 X148.198 Y88.043 E13.88591
G1 X148.203 Y88.362 E13.89653
G1 X148.203 Y93.463 E14.06619
G1 X148.193 Y94.178 E14.08997
G1 X148.14 Y95.097 E14.12059
G1 X148.067 Y95.669 E14.13976
G1 X147.99 Y96.161 E14.15633
G1 X147.633 Y98.667 E14.24052
G1 X147.348 Y101.175 E14.32447
G1 X147.132 Y103.713 E14.40919
G1 X146.99 Y106.215 E14.49254
G1 X146.918 Y108.761 E14.57726
G1 X146.918 Y111.272 E14.66077
G1 X146.99 Y113.826 E14.74575
G1 X147.131 Y116.318 E14.82877
G1 X147.348 Y118.869 E14.91392
G1 X147.628 Y121.341 E14.99667
G1 X148.004 Y123.978 E15.08526
G1 X148.083 Y124.51 E15.10315
G1 X148.188 Y125.713 E15.14331
G1 X148.198 Y126.046 E15.1544
G1 X148.203 Y126.362 E15.16491
G1 X148.203 Y131.463 E15.33457
G1 X148.193 Y132.178 E15.35835
G1 X148.14 Y133.097 E15.38897
G1 X147.987 Y134.113 E15.42314
G1 X147.453 Y136.778 E15.51354
G1 X147.025 Y139.276 E15.59783
G1 X146.666 Y141.796 E15.6825
G1 X146.382 Y144.304 E15.76645
G1 X146.19 Y146.514 E15.84023
G1 X146.145 Y147.121 E15.86047
G1 X146.051 Y147.949 E15.88819
G1 X146.041 Y148.014 E15.89038
G1 X145.951 Y148.516 E15.90734
G1 X145.905 Y148.742 E15.91501
G1 X145.597 Y149.91 E15.95519
G1 X145.498 Y150.214 E15.96582
G1 X145.175 Y151.077 E15.99647
G1 X144.944 Y151.584 E16.015
G1 X144.839 Y151.799 E16.02296
G1 X144.297 Y152.774 E16.06006
G1 X144.126 Y153.047 E16.07077
G1 X143.352 Y154.126 E16.11494
G1 X143.111 Y154.421 E16.12761
G1 X142.243 Y155.362 E16.17019
G1 X142.193 Y155.41 E16.17249
G1 X141.779 Y155.786 E16.19109
G1 X141.618 Y155.925 E16.19817
G1 X140.72 Y156.621 E16.23596
G1 X140.438 Y156.816 E16.24736
G1 X139.659 Y157.306 E16.27797
G1 X138.9 Y157.699 E16.3064
G1 X138.652 Y157.815 E16.3155
G1 X137.768 Y158.18 E16.34731
G1 X137.511 Y158.273 E16.3564
G1 X136.859 Y158.486 E16.37922
G1 X136.518 Y158.585 E16.39103
G1 X136.12 Y158.692 E16.40473
G1 X135.315 Y158.891 E16.43231
G1 X134.707 Y159.034 E16.45309
G1 X132.267 Y159.679 E16.53703
G1 X130.528 Y160.202 E16.59743
G1 X129.171 Y160.598 E16.64445
G1 X128.277 Y160.817 E16.67506
G1 X127.367 Y160.958 E16.70569
G1 X126.524 Y161.017 E16.73379
G1 X126.195 Y161.027 E16.74474
G1 X125.873 Y161.032 E16.75545
G1 X120.758 Y161.031 E16.92558
G1 X120.061 Y161.021 E16.94876
G1 X119.504 Y160.998 E16.96731
G1 X119.116 Y160.967 E16.98025
G1 X118.614 Y160.917 E16.99703
G1 X115.989 Y160.693 E17.08466
G1 X113.497 Y160.553 E17.16767
G1 X110.95 Y160.482 E17.25242
G1 X108.439 Y160.482 E17.33593
G1 X105.887 Y160.555 E17.42085
G1 X103.36 Y160.698 E17.50503
G1 X100.829 Y160.915 E17.58952
G1 X100.437 Y160.955 E17.60263
G1 X100.117 Y160.983 E17.61331
G1 X99.491 Y161.019 E17.63417
G1 X99.171 Y161.028 E17.64481
G1 X98.873 Y161.032 E17.65473
G1 X93.759 Y161.031 E17.82482
G1 X93.057 Y161.021 E17.84817
G1 X92.138 Y160.968 E17.87879
G1 X91.227 Y160.835 E17.90941
G1 X90.116 Y160.561 E17.94747
G1 X89.286 Y160.308 E17.97633
G1 X86.808 Y159.586 E18.06217
G1 X83.609 Y158.767 E18.172
G1 X83.273 Y158.686 E18.1835
G1 X82.698 Y158.531 E18.20331
G1 X82.244 Y158.395 E18.21907
G1 X81.375 Y158.093 E18.24967
G1 X80.673 Y157.785 E18.27516
G1 X80.493 Y157.698 E18.28181
G1 X79.451 Y157.119 E18.32146
G1 X79.126 Y156.914 E18.33424
G1 X78.369 Y156.39 E18.36486
G1 X78.001 Y156.097 E18.38051
G1 X77.751 Y155.889 E18.39133
G1 X77.07 Y155.27 E18.42193
G1 X76.635 Y154.812 E18.44294
G1 X76.455 Y154.611 E18.45192
G1 X75.652 Y153.597 E18.49494
G1 X75.487 Y153.36 E18.50454
G1 X74.828 Y152.282 E18.54657
G1 X74.695 Y152.032 E18.55598
G1 X74.219 Y151.009 E18.59351
G1 X74.11 Y150.738 E18.60323
G1 X73.753 Y149.699 E18.63977
G1 X73.676 Y149.43 E18.64907
G1 X73.415 Y148.276 E18.68843
G1 X73.372 Y148.021 E18.69703
G1 X73.254 Y147.059 E18.72926
G1 X73.206 Y146.43 E18.75024
G1 X72.972 Y143.846 E18.83654
G1 X72.671 Y141.308 E18.92155
G1 X72.309 Y138.858 E19.00392
G1 X71.676 Y135.38 E19.1215
G1 X71.422 Y134.12 E19.16425
G1 X71.279 Y133.211 E19.19485
G1 X71.218 Y132.352 E19.2235
G1 X71.208 Y132.025 E19.23438
G1 X71.203 Y131.703 E19.24509
G1 X71.203 Y126.6 E19.41481
G1 X71.213 Y125.884 E19.43863
G1 X71.266 Y124.965 E19.46925
G1 X71.341 Y124.386 E19.48867
G1 X71.405 Y123.978 E19.5024
G1 X71.773 Y121.397 E19.58912
G1 X72.058 Y118.889 E19.67307
G1 X72.274 Y116.351 E19.75779
G1 X72.416 Y113.849 E19.84114
G1 X72.488 Y111.303 E19.92585
G1 X72.488 Y108.792 E20.00937
G1 X72.416 Y106.238 E20.09435
G1 X72.276 Y103.748 E20.1773
G1 X72.057 Y101.188 E20.26275
G1 X71.779 Y98.731 E20.345
G1 X71.402 Y96.086 E20.43386
G1 X71.365 Y95.845 E20.44197
G1 X71.315 Y95.489 E20.45392
G1 X71.216 Y94.319 E20.49298
G1 X71.207 Y94.005 E20.50343
G1 X71.203 Y93.703 E20.51347
G1 X71.203 Y88.6 E20.6832
G1 X71.213 Y87.885 E20.70698
G1 X71.266 Y86.966 E20.7376
G1 X71.418 Y85.954 E20.77163
G1 X71.955 Y83.27 E20.86267
G1 X72.381 Y80.779 E20.94673
G1 X72.735 Y78.284 E21.03054
G1 X73.024 Y75.727 E21.11613
G1 X73.185 Y73.899 E21.17717
G1 X73.262 Y72.916 E21.20996
G1 X73.403 Y71.835 E21.24622
G1 X73.442 Y71.622 E21.25342
G1 X73.723 Y70.462 E21.29312
G1 X73.844 Y70.062 E21.30702
G1 X74.149 Y69.193 E21.33765
G1 X74.42 Y68.572 E21.36019
G1 X74.531 Y68.339 E21.36877
G1 X75.15 Y67.221 E21.41127
G1 X75.313 Y66.964 E21.4214
G1 X76.087 Y65.896 E21.46527
