;FLAVOR:Marlin
;TIME:3509
;Filament used: 3.06704m
;Layer height: 0.16
;MINX:73.406
;MINY:60.905
;MINZ:0.2
;MAXX:146.595
;MAXY:159.095
;MAXZ:10.88
;Generated with Cura_SteamEngine 4.9.1
M140 S90
M105
M190 S90
M104 S260
M105
M109 S260
M82 ;absolute extrusion mode
M201 X500.00 Y500.00 Z100.00 E5000.00 ;Setup machine max acceleration
M203 X500.00 Y500.00 Z10.00 E50.00 ;Setup machine max feedrate
M204 P500.00 R1000.00 T500.00 ;Setup Print/Retract/Travel acceleration
M205 X8.00 Y8.00 Z0.40 E5.00 ;Setup Jerk
M220 S100 ;Reset Feedrate
M221 S100 ;Reset Flowrate

G28 ;Home

G92 E0 ;Reset Extruder
G1 Z2.0 F3000 ;Move Z Axis up
G1 X10.1 Y20 Z0.28 F5000.0 ;Move to start position
G1 X10.1 Y200.0 Z0.28 F1500.0 E15 ;Draw the first line
G1 X10.4 Y200.0 Z0.28 F5000.0 ;Move to side a little
G1 X10.4 Y20 Z0.28 F1500.0 E30 ;Draw the second line
G92 E0 ;Reset Extruder
G1 Z2.0 F3000 ;Move Z Axis up

G92 E0
G92 E0
G1 F2700 E-5
;LAYER_COUNT:57
;LAYER:0
M107
G0 F6000 X76.97 Y65.043 Z0.2
;TYPE:SKIRT
G1 F2700 E0
G1 F1200 X77.169 Y64.835 E0.00957
G1 X77.845 Y64.185 E0.04077
G1 X78.392 Y63.734 E0.06435
G1 X78.603 Y63.571 E0.07321
G1 X79.571 Y62.903 E0.11233
G1 X79.698 Y62.825 E0.11729
G1 X80.737 Y62.261 E0.15661
G1 X81.015 Y62.129 E0.16684
G1 X81.878 Y61.763 E0.19802
G1 X82.339 Y61.603 E0.21425
G1 X82.561 Y61.531 E0.22202
G1 X83.771 Y61.213 E0.26363
G1 X84.082 Y61.15 E0.27418
G1 X85.397 Y60.965 E0.31835
G1 X85.498 Y60.957 E0.32172
G1 X86.174 Y60.925 E0.34423
G1 X87.391 Y60.905 E0.38471
G1 X132.951 Y60.907 E1.90004
G1 X133.58 Y60.916 E1.92096
G1 X133.908 Y60.926 E1.93188
G1 X134.18 Y60.938 E1.94093
G1 X135.44 Y61.066 E1.98306
G1 X135.689 Y61.106 E1.99145
G1 X137.029 Y61.408 E2.03713
G1 X137.296 Y61.486 E2.04638
G1 X138.516 Y61.922 E2.08948
G1 X138.73 Y62.013 E2.09721
G1 X139.943 Y62.62 E2.14232
G1 X140.181 Y62.758 E2.15147
G1 X141.321 Y63.518 E2.19704
G1 X141.513 Y63.664 E2.20507
G1 X142.498 Y64.509 E2.24823
G1 X142.705 Y64.709 E2.2578
G1 X143.351 Y65.389 E2.289
G1 X143.722 Y65.837 E2.30835
G1 X143.881 Y66.04 E2.31692
G1 X144.577 Y67.038 E2.35739
G1 X144.658 Y67.169 E2.36251
G1 X145.239 Y68.237 E2.40295
G1 X145.37 Y68.513 E2.41311
G1 X145.736 Y69.377 E2.44432
G1 X145.896 Y69.835 E2.46046
G1 X145.969 Y70.06 E2.46833
G1 X146.282 Y71.245 E2.50909
G1 X146.338 Y71.518 E2.51836
G1 X146.531 Y72.903 E2.56487
G1 X146.555 Y73.222 E2.57551
G1 X146.58 Y73.697 E2.59133
G1 X146.589 Y73.98 E2.60075
G1 X146.595 Y74.33 E2.61239
G1 X146.593 Y145.449 E4.97782
G1 X146.584 Y146.082 E4.99887
G1 X146.574 Y146.418 E5.01005
G1 X146.562 Y146.686 E5.01898
G1 X146.435 Y147.932 E5.06063
G1 X146.395 Y148.182 E5.06905
G1 X146.096 Y149.513 E5.11443
G1 X146.019 Y149.778 E5.12361
G1 X145.574 Y151.025 E5.16764
G1 X145.481 Y151.243 E5.17553
G1 X144.876 Y152.45 E5.22043
G1 X144.739 Y152.686 E5.22951
G1 X143.993 Y153.807 E5.27429
G1 X143.849 Y153.997 E5.28222
G1 X143.01 Y154.979 E5.32518
G1 X142.808 Y155.189 E5.33487
G1 X142.129 Y155.836 E5.36607
G1 X141.651 Y156.232 E5.38671
G1 X141.45 Y156.389 E5.3952
G1 X140.401 Y157.115 E5.43763
G1 X140.268 Y157.196 E5.44281
G1 X139.279 Y157.73 E5.48019
G1 X139 Y157.863 E5.49047
G1 X138.137 Y158.231 E5.52167
G1 X137.661 Y158.397 E5.53844
G1 X137.439 Y158.469 E5.5462
G1 X136.229 Y158.787 E5.58781
G1 X135.918 Y158.85 E5.59837
G1 X134.603 Y159.035 E5.64254
G1 X134.502 Y159.043 E5.64591
G1 X133.826 Y159.075 E5.66841
G1 X132.609 Y159.095 E5.7089
G1 X87.059 Y159.093 E7.2239
G1 X86.534 Y159.086 E7.24136
G1 X86.171 Y159.075 E7.25344
G1 X85.848 Y159.06 E7.26419
G1 X84.807 Y158.962 E7.29897
G1 X84.442 Y158.91 E7.31123
G1 X83.52 Y158.738 E7.34243
G1 X82.755 Y158.533 E7.36877
G1 X82.531 Y158.464 E7.37657
G1 X81.314 Y158.009 E7.41978
G1 X81.095 Y157.912 E7.42775
G1 X79.982 Y157.341 E7.46935
G1 X79.798 Y157.233 E7.47645
G1 X78.715 Y156.508 E7.5198
G1 X78.495 Y156.341 E7.52898
G1 X77.51 Y155.496 E7.57215
G1 X77.341 Y155.333 E7.57996
G1 X76.442 Y154.356 E7.62411
G1 X76.268 Y154.142 E7.63329
G1 X75.479 Y153.039 E7.67839
G1 X75.33 Y152.801 E7.68773
G1 X74.679 Y151.601 E7.73314
G1 X74.593 Y151.416 E7.73993
G1 X74.234 Y150.549 E7.77114
G1 X74.063 Y150.042 E7.78893
G1 X73.99 Y149.807 E7.79712
G1 X73.748 Y148.887 E7.82876
G1 X73.69 Y148.621 E7.83781
G1 X73.529 Y147.697 E7.86901
G1 X73.465 Y147.064 E7.89017
G1 X73.442 Y146.743 E7.90087
G1 X73.415 Y146.112 E7.92188
G1 X73.406 Y145.389 E7.94593
G1 X73.407 Y74.551 E10.30201
G1 X73.416 Y73.918 E10.32307
G1 X73.426 Y73.582 E10.33425
G1 X73.438 Y73.314 E10.34317
G1 X73.565 Y72.068 E10.38482
G1 X73.605 Y71.818 E10.39325
G1 X73.904 Y70.487 E10.43862
G1 X73.981 Y70.222 E10.4478
G1 X74.431 Y68.963 E10.49227
G1 X74.526 Y68.741 E10.5003
G1 X75.131 Y67.537 E10.54511
G1 X75.266 Y67.305 E10.55404
G1 X76.007 Y66.193 E10.59849
G1 X76.151 Y66.003 E10.60642
G1 X76.97 Y65.043 E10.64839
G0 F6000 X77.259 Y65.319
G1 F1200 X77.458 Y65.111 E10.65796
G1 X78.123 Y64.474 E10.68859
G1 X78.637 Y64.051 E10.71073
G1 X78.848 Y63.888 E10.7196
G1 X79.781 Y63.244 E10.7573
G1 X79.908 Y63.166 E10.76226
G1 X80.908 Y62.623 E10.80011
G1 X81.186 Y62.491 E10.81034
G1 X82.463 Y61.983 E10.85605
G1 X82.685 Y61.911 E10.86382
G1 X83.85 Y61.605 E10.90388
G1 X84.161 Y61.542 E10.91443
G1 X85.429 Y61.364 E10.95702
G1 X85.53 Y61.356 E10.96039
G1 X86.181 Y61.325 E10.98207
G1 X87.391 Y61.305 E11.02232
G1 X132.946 Y61.307 E12.53748
G1 X133.575 Y61.316 E12.5584
G1 X133.89 Y61.325 E12.56889
G1 X134.162 Y61.337 E12.57794
G1 X135.376 Y61.461 E12.61853
G1 X135.625 Y61.501 E12.62692
G1 X136.916 Y61.792 E12.67093
G1 X137.183 Y61.87 E12.68019
G1 X138.359 Y62.29 E12.72172
G1 X138.573 Y62.381 E12.72945
G1 X139.742 Y62.966 E12.77293
G1 X139.98 Y63.104 E12.78208
G1 X141.079 Y63.836 E12.826
G1 X141.271 Y63.982 E12.83402
G1 X142.22 Y64.797 E12.87563
G1 X142.427 Y64.997 E12.8852
G1 X143.061 Y65.665 E12.91583
G1 X143.407 Y66.084 E12.93391
G1 X143.566 Y66.287 E12.94248
G1 X144.237 Y67.248 E12.98147
G1 X144.318 Y67.379 E12.98659
G1 X144.878 Y68.409 E13.02558
G1 X145.009 Y68.685 E13.03574
G1 X145.516 Y69.959 E13.08135
G1 X145.589 Y70.184 E13.08922
G1 X145.89 Y71.325 E13.12847
G1 X145.946 Y71.598 E13.13774
G1 X146.132 Y72.933 E13.18257
G1 X146.156 Y73.252 E13.19321
G1 X146.181 Y73.71 E13.20846
G1 X146.19 Y73.993 E13.21788
G1 X146.195 Y74.33 E13.22909
G1 X146.193 Y145.444 E15.59435
G1 X146.184 Y146.077 E15.61541
G1 X146.174 Y146.4 E15.62615
G1 X146.162 Y146.668 E15.63508
G1 X146.04 Y147.869 E15.67523
G1 X146 Y148.119 E15.68365
G1 X145.712 Y149.402 E15.72738
G1 X145.635 Y149.667 E15.73656
G1 X145.206 Y150.868 E15.77898
G1 X145.113 Y151.086 E15.78686
G1 X144.53 Y152.249 E15.83013
G1 X144.393 Y152.485 E15.83921
G1 X143.674 Y153.566 E15.88239
G1 X143.53 Y153.756 E15.89032
G1 X142.721 Y154.701 E15.93169
G1 X142.519 Y154.911 E15.94139
G1 X141.853 Y155.547 E15.97201
G1 X141.405 Y155.917 E15.99134
G1 X141.204 Y156.074 E15.99982
G1 X140.193 Y156.773 E16.0407
G1 X140.06 Y156.854 E16.04588
G1 X139.107 Y157.369 E16.08191
G1 X138.828 Y157.502 E16.09219
G1 X137.981 Y157.862 E16.1228
G1 X137.537 Y158.017 E16.13844
G1 X137.315 Y158.089 E16.14621
G1 X136.15 Y158.395 E16.18627
G1 X135.839 Y158.458 E16.19682
G1 X134.571 Y158.636 E16.23941
G1 X134.47 Y158.644 E16.24278
G1 X133.819 Y158.675 E16.26446
G1 X132.609 Y158.695 E16.30471
G1 X87.065 Y158.693 E17.81951
G1 X86.54 Y158.686 E17.83697
G1 X86.189 Y158.676 E17.84865
G1 X85.866 Y158.661 E17.8594
G1 X84.863 Y158.566 E17.89291
G1 X84.498 Y158.514 E17.90517
G1 X83.593 Y158.345 E17.9358
G1 X82.873 Y158.15 E17.96061
G1 X82.649 Y158.081 E17.9684
G1 X81.476 Y157.643 E18.01005
G1 X81.257 Y157.546 E18.01801
G1 X80.184 Y156.996 E18.05812
G1 X80 Y156.888 E18.06521
G1 X78.957 Y156.189 E18.10697
G1 X78.737 Y156.022 E18.11616
G1 X77.787 Y155.209 E18.15775
G1 X77.618 Y155.046 E18.16556
G1 X76.753 Y154.103 E18.20812
G1 X76.579 Y153.889 E18.21729
G1 X75.818 Y152.827 E18.26075
G1 X75.669 Y152.589 E18.27009
G1 X75.042 Y151.432 E18.31385
G1 X74.956 Y151.247 E18.32064
G1 X74.604 Y150.396 E18.35127
G1 X74.445 Y149.924 E18.36784
G1 X74.372 Y149.689 E18.37602
G1 X74.138 Y148.802 E18.40653
G1 X74.08 Y148.536 E18.41559
G1 X73.923 Y147.629 E18.4462
G1 X73.864 Y147.036 E18.46602
G1 X73.841 Y146.715 E18.47673
G1 X73.815 Y146.106 E18.497
G1 X73.806 Y145.389 E18.52085
G1 X73.807 Y74.556 E20.87676
G1 X73.816 Y73.923 E20.89782
G1 X73.826 Y73.6 E20.90857
G1 X73.838 Y73.332 E20.91749
G1 X73.96 Y72.131 E20.95764
G1 X74 Y71.881 E20.96606
G1 X74.288 Y70.598 E21.0098
G1 X74.365 Y70.333 E21.01898
G1 X74.799 Y69.121 E21.06179
G1 X74.894 Y68.899 E21.06983
G1 X75.477 Y67.738 E21.11304
G1 X75.612 Y67.506 E21.12196
G1 X76.326 Y66.434 E21.1648
G1 X76.47 Y66.244 E21.17273
G1 X77.259 Y65.319 E21.21317
G0 F6000 X77.548 Y65.596
G1 F1200 X77.747 Y65.388 E21.22274
G1 X78.399 Y64.763 E21.25278
G1 X78.881 Y64.367 E21.27353
G1 X79.092 Y64.204 E21.2824
G1 X79.99 Y63.584 E21.31869
G1 X80.117 Y63.506 E21.32365
G1 X81.08 Y62.984 E21.36008
G1 X81.358 Y62.852 E21.37032
G1 X82.586 Y62.364 E21.41427
G1 X82.808 Y62.292 E21.42203
G1 X83.93 Y61.997 E21.46062
G1 X84.241 Y61.934 E21.47117
G1 X85.461 Y61.763 E21.51215
G1 X85.562 Y61.755 E21.51552
G1 X86.188 Y61.725 E21.53636
G1 X87.391 Y61.705 E21.57638
G1 X132.94 Y61.707 E23.09134
G1 X133.569 Y61.716 E23.11227
G1 X133.873 Y61.725 E23.12238
G1 X134.145 Y61.737 E23.13144
G1 X135.313 Y61.856 E23.17049
G1 X135.562 Y61.896 E23.17888
G1 X136.804 Y62.176 E23.22122
G1 X137.071 Y62.254 E23.23047
G1 X138.202 Y62.658 E23.27042
G1 X138.416 Y62.749 E23.27815
G1 X139.541 Y63.312 E23.31999
G1 X139.779 Y63.45 E23.32914
G1 X140.837 Y64.155 E23.37143
G1 X141.029 Y64.301 E23.37945
G1 X141.942 Y65.085 E23.41948
G1 X142.149 Y65.285 E23.42905
G1 X142.77 Y65.94 E23.45907
G1 X143.092 Y66.33 E23.47589
G1 X143.251 Y66.533 E23.48447
G1 X143.897 Y67.459 E23.52202
G1 X143.978 Y67.59 E23.52715
G1 X144.517 Y68.58 E23.56464
G1 X144.648 Y68.856 E23.5748
G1 X145.135 Y70.082 E23.61867
G1 X145.208 Y70.307 E23.62654
G1 X145.498 Y71.405 E23.66431
G1 X145.554 Y71.678 E23.67358
G1 X145.733 Y72.963 E23.71674
G1 X145.757 Y73.282 E23.72738
G1 X145.781 Y73.723 E23.74206
G1 X145.79 Y74.006 E23.75148
G1 X145.795 Y74.33 E23.76226
G1 X145.793 Y145.438 E26.12732
G1 X145.784 Y146.071 E26.14838
G1 X145.775 Y146.382 E26.15873
G1 X145.763 Y146.65 E26.16765
G1 X145.645 Y147.806 E26.2063
G1 X145.605 Y148.056 E26.21472
G1 X145.328 Y149.29 E26.25678
G1 X145.251 Y149.555 E26.26596
G1 X144.838 Y150.711 E26.30679
G1 X144.745 Y150.929 E26.31467
G1 X144.184 Y152.048 E26.35631
G1 X144.047 Y152.284 E26.36538
G1 X143.355 Y153.324 E26.40693
G1 X143.211 Y153.514 E26.41486
G1 X142.433 Y154.424 E26.45468
G1 X142.231 Y154.634 E26.46437
G1 X141.577 Y155.257 E26.49441
G1 X141.159 Y155.601 E26.51242
G1 X140.958 Y155.758 E26.5209
G1 X139.985 Y156.432 E26.56027
G1 X139.852 Y156.513 E26.56545
G1 X138.935 Y157.008 E26.60011
G1 X138.656 Y157.141 E26.61039
G1 X137.414 Y157.636 E26.65486
G1 X137.192 Y157.708 E26.66262
G1 X136.07 Y158.003 E26.70121
G1 X135.759 Y158.066 E26.71176
G1 X134.539 Y158.237 E26.75273
G1 X134.438 Y158.245 E26.7561
G1 X133.812 Y158.275 E26.77695
G1 X132.609 Y158.295 E26.81697
G1 X87.07 Y158.293 E28.3316
G1 X86.545 Y158.286 E28.34906
G1 X86.208 Y158.276 E28.36028
G1 X85.885 Y158.261 E28.37103
G1 X84.919 Y158.17 E28.4033
G1 X84.554 Y158.118 E28.41556
G1 X83.667 Y157.951 E28.44558
G1 X82.99 Y157.768 E28.46891
G1 X82.766 Y157.699 E28.47671
G1 X81.638 Y157.277 E28.51676
G1 X81.419 Y157.18 E28.52473
G1 X80.387 Y156.651 E28.5633
G1 X80.203 Y156.543 E28.5704
G1 X79.199 Y155.87 E28.6106
G1 X78.979 Y155.703 E28.61978
G1 X78.065 Y154.921 E28.65979
G1 X77.896 Y154.758 E28.6676
G1 X77.063 Y153.851 E28.70856
G1 X76.889 Y153.637 E28.71773
G1 X76.158 Y152.615 E28.75953
G1 X76.009 Y152.377 E28.76887
G1 X75.405 Y151.264 E28.81098
G1 X75.319 Y151.079 E28.81777
G1 X74.974 Y150.244 E28.84782
G1 X74.827 Y149.805 E28.86322
G1 X74.754 Y149.57 E28.8714
G1 X74.529 Y148.717 E28.90074
G1 X74.471 Y148.451 E28.9098
G1 X74.318 Y147.561 E28.93983
G1 X74.263 Y147.007 E28.95835
G1 X74.24 Y146.686 E28.96905
G1 X74.215 Y146.101 E28.98853
G1 X74.206 Y145.389 E29.01221
G1 X74.207 Y74.562 E31.36793
G1 X74.216 Y73.929 E31.38898
G1 X74.225 Y73.618 E31.39933
G1 X74.237 Y73.35 E31.40825
G1 X74.355 Y72.194 E31.4469
G1 X74.395 Y71.944 E31.45532
G1 X74.672 Y70.71 E31.49739
G1 X74.749 Y70.445 E31.50657
G1 X75.167 Y69.278 E31.5478
G1 X75.262 Y69.056 E31.55583
G1 X75.823 Y67.939 E31.5974
G1 X75.958 Y67.707 E31.60633
G1 X76.645 Y66.676 E31.64754
G1 X76.789 Y66.486 E31.65546
G1 X77.548 Y65.596 E31.69437
G1 F2700 E26.69437
;MESH:Top_drawer_3.stl
G0 F6000 X83.76 Y73.669
G0 X84.825 Y74.027
G0 X86.788 Y145.712
G0 X133.338 Y145.895
;TYPE:WALL-INNER
G1 F2700 E31.69437
G1 F1200 X133.177 Y145.895 E31.69972
G1 X86.613 Y145.894 E33.24845
G1 X86.606 Y145.874 E33.24915
G1 X86.606 Y74.319 E35.62908
G1 X86.606 Y74.158 E35.63444
G1 X86.615 Y74.115 E35.6359
G1 X86.662 Y74.105 E35.6375
G1 X86.823 Y74.105 E35.64285
G1 X133.342 Y74.106 E37.19008
G1 X133.395 Y74.148 E37.19233
G1 X133.394 Y145.68 E39.57149
G1 X133.394 Y145.841 E39.57685
G1 X133.385 Y145.885 E39.57834
G1 X133.338 Y145.895 E39.57994
G0 F6000 X133.379 Y146.295
G1 F1200 X86.578 Y146.294 E41.13655
G1 X86.42 Y146.265 E41.14189
G1 X86.283 Y146.173 E41.14738
G1 X86.206 Y145.936 E41.15567
G1 X86.206 Y74.116 E43.54441
G1 X86.264 Y73.846 E43.5536
G1 X86.363 Y73.76 E43.55796
G1 X86.531 Y73.725 E43.56366
G1 X86.575 Y73.716 E43.56516
G1 X86.621 Y73.705 E43.56673
G1 X133.384 Y73.706 E45.12207
G1 X133.654 Y73.764 E45.13126
G1 X133.741 Y73.865 E45.13569
G1 X133.784 Y74.06 E45.14234
G1 X133.795 Y74.106 E45.14391
G1 X133.794 Y145.883 E47.53122
G1 X133.736 Y146.154 E47.54044
G1 X133.637 Y146.24 E47.5448
G1 X133.469 Y146.275 E47.55051
G1 X133.425 Y146.284 E47.552
G1 X133.379 Y146.295 E47.55357
G0 F6000 X133.421 Y146.695
G1 F1200 X86.544 Y146.694 E49.11271
G1 X86.265 Y146.643 E49.12214
G1 X85.987 Y146.455 E49.13331
G1 X85.852 Y146.234 E49.14192
G1 X85.806 Y145.971 E49.1508
G1 X85.806 Y74.074 E51.5421
G1 X85.89 Y73.685 E51.55534
G1 X85.981 Y73.553 E51.56067
G1 X86.187 Y73.389 E51.56943
G1 X86.279 Y73.37 E51.57255
G1 X86.579 Y73.305 E51.58276
G1 X133.426 Y73.306 E53.1409
G1 X133.815 Y73.39 E53.15414
G1 X133.947 Y73.481 E53.15947
G1 X134.111 Y73.687 E53.16823
G1 X134.184 Y74.019 E53.17953
G1 X134.195 Y74.064 E53.18108
G1 X134.194 Y145.925 E55.57118
G1 X134.11 Y146.315 E55.58445
G1 X134.019 Y146.447 E55.58978
G1 X133.813 Y146.611 E55.59854
G1 X133.721 Y146.63 E55.60167
G1 X133.421 Y146.695 E55.61187
G0 F6000 X133.443 Y147.095
G1 F1200 X86.533 Y147.094 E57.17211
G1 X86.382 Y147.084 E57.17714
G1 X86.119 Y147.019 E57.18615
G1 X85.877 Y146.891 E57.19526
G1 X85.723 Y146.754 E57.20211
G1 X85.684 Y146.72 E57.20383
G1 X85.526 Y146.49 E57.21311
G1 X85.471 Y146.362 E57.21775
G1 X85.414 Y146.11 E57.22634
G1 X85.406 Y145.98 E57.23067
G1 X85.406 Y74.054 E59.62294
G1 X85.443 Y73.735 E59.63362
G1 X85.534 Y73.496 E59.64213
G1 X85.684 Y73.278 E59.65093
G1 X85.987 Y73.037 E59.66381
G1 X86.235 Y72.943 E59.67263
G1 X86.557 Y72.905 E59.68341
G1 X133.446 Y72.906 E61.24295
G1 X133.765 Y72.943 E61.25363
G1 X134.004 Y73.034 E61.26213
G1 X134.222 Y73.184 E61.27094
G1 X134.463 Y73.487 E61.28381
G1 X134.557 Y73.735 E61.29263
G1 X134.595 Y74.038 E61.30279
G1 X134.594 Y145.945 E63.69443
G1 X134.557 Y146.265 E63.70514
G1 X134.466 Y146.504 E63.71365
G1 X134.316 Y146.722 E63.72245
G1 X134.013 Y146.963 E63.73532
G1 X133.765 Y147.057 E63.74415
G1 X133.443 Y147.095 E63.75493
G0 F6000 X133.465 Y147.495
G1 F1200 X86.522 Y147.494 E65.31626
G1 X86.323 Y147.481 E65.32289
G1 X85.973 Y147.395 E65.33488
G1 X85.646 Y147.221 E65.3472
G1 X85.384 Y146.988 E65.35886
G1 X85.356 Y146.947 E65.36051
G1 X85.175 Y146.685 E65.3711
G1 X85.16 Y146.648 E65.37243
G1 X85.089 Y146.485 E65.37835
G1 X85.017 Y146.167 E65.38919
G1 X85.016 Y146.135 E65.39026
G1 X85.008 Y146.008 E65.39449
G1 X85.006 Y145.989 E65.39512
G1 X85.006 Y74.033 E67.78839
G1 X85.052 Y73.64 E67.80155
G1 X85.177 Y73.309 E67.81332
G1 X85.383 Y73.01 E67.82539
G1 X85.614 Y72.804 E67.83569
G1 X85.806 Y72.678 E67.84333
G1 X86.094 Y72.57 E67.85356
G1 X86.14 Y72.552 E67.8552
G1 X86.187 Y72.547 E67.85677
G1 X86.509 Y72.509 E67.86756
