;FLAVOR:Marlin
;TIME:4997
;Filament used: 4.47114m
;Layer height: 0.16
;MINX:73.405
;MINY:64.705
;MINZ:0.2
;MAXX:146.594
;MAXY:162.895
;MAXZ:18.88
;Generated with Cura_SteamEngine 4.9.1
M140 S90
M105
M190 S90
M104 S260
M105
M109 S260
M82 ;absolute extrusion mode
M201 X500.00 Y500.00 Z100.00 E5000.00 ;Setup machine max acceleration
M203 X500.00 Y500.00 Z10.00 E50.00 ;Setup machine max feedrate
M204 P500.00 R1000.00 T500.00 ;Setup Print/Retract/Travel acceleration
M205 X8.00 Y8.00 Z0.40 E5.00 ;Setup Jerk
M220 S100 ;Reset Feedrate
M221 S100 ;Reset Flowrate

G28 ;Home

G92 E0 ;Reset Extruder
G1 Z2.0 F3000 ;Move Z Axis up
G1 X10.1 Y20 Z0.28 F5000.0 ;Move to start position
G1 X10.1 Y200.0 Z0.28 F1500.0 E15 ;Draw the first line
G1 X10.4 Y200.0 Z0.28 F5000.0 ;Move to side a little
G1 X10.4 Y20 Z0.28 F1500.0 E30 ;Draw the second line
G92 E0 ;Reset Extruder
G1 Z2.0 F3000 ;Move Z Axis up

G92 E0
G92 E0
G1 F2700 E-5
;LAYER_COUNT:97
;LAYER:0
M107
G0 F6000 X76.97 Y68.843 Z0.2
;TYPE:SKIRT
G1 F2700 E0
G1 F1200 X77.169 Y68.635 E0.00957
G1 X77.845 Y67.985 E0.04077
G1 X78.369 Y67.552 E0.06337
G1 X78.575 Y67.392 E0.07205
G1 X79.59 Y66.691 E0.11308
G1 X79.721 Y66.611 E0.11818
G1 X80.721 Y66.07 E0.156
G1 X81 Y65.937 E0.16628
G1 X81.863 Y65.569 E0.19748
G1 X82.339 Y65.403 E0.21425
G1 X82.561 Y65.331 E0.22201
G1 X83.771 Y65.013 E0.26362
G1 X84.082 Y64.95 E0.27418
G1 X85.397 Y64.765 E0.31835
G1 X85.498 Y64.757 E0.32172
G1 X86.174 Y64.725 E0.34422
G1 X87.391 Y64.705 E0.38471
G1 X132.939 Y64.707 E1.89964
G1 X133.468 Y64.714 E1.91724
G1 X133.839 Y64.725 E1.92958
G1 X134.158 Y64.74 E1.9402
G1 X135.188 Y64.837 E1.97461
G1 X135.554 Y64.889 E1.98691
G1 X136.476 Y65.061 E2.0181
G1 X137.245 Y65.267 E2.04458
G1 X137.469 Y65.336 E2.05238
G1 X138.63 Y65.767 E2.09357
G1 X138.834 Y65.856 E2.10097
G1 X139.975 Y66.435 E2.14353
G1 X140.174 Y66.551 E2.15119
G1 X141.285 Y67.292 E2.1956
G1 X141.505 Y67.459 E2.20479
G1 X142.49 Y68.304 E2.24796
G1 X142.659 Y68.467 E2.25576
G1 X143.558 Y69.444 E2.29992
G1 X143.732 Y69.658 E2.3091
G1 X144.527 Y70.772 E2.35462
G1 X144.675 Y71.009 E2.36391
G1 X145.31 Y72.177 E2.40813
G1 X145.396 Y72.361 E2.41488
G1 X145.757 Y73.227 E2.44609
G1 X145.931 Y73.74 E2.46411
G1 X146.005 Y73.977 E2.47236
G1 X146.232 Y74.822 E2.50146
G1 X146.286 Y75.06 E2.50958
G1 X146.435 Y75.847 E2.53622
G1 X146.535 Y76.739 E2.56608
G1 X146.558 Y77.062 E2.57685
G1 X146.585 Y77.672 E2.59716
G1 X146.594 Y78.359 E2.62001
G1 X146.593 Y149.249 E4.97782
G1 X146.584 Y149.882 E4.99887
G1 X146.574 Y150.218 E5.01005
G1 X146.562 Y150.486 E5.01898
G1 X146.435 Y151.732 E5.06063
G1 X146.395 Y151.982 E5.06905
G1 X146.096 Y153.313 E5.11443
G1 X146.019 Y153.578 E5.12361
G1 X145.574 Y154.825 E5.16764
G1 X145.481 Y155.043 E5.17553
G1 X144.876 Y156.25 E5.22043
G1 X144.739 Y156.486 E5.22951
G1 X143.993 Y157.607 E5.27429
G1 X143.849 Y157.797 E5.28222
G1 X143.01 Y158.779 E5.32518
G1 X142.808 Y158.989 E5.33487
G1 X142.129 Y159.636 E5.36607
G1 X141.651 Y160.032 E5.38671
G1 X141.45 Y160.189 E5.3952
G1 X140.401 Y160.915 E5.43763
G1 X140.268 Y160.996 E5.44281
G1 X139.279 Y161.53 E5.48019
G1 X139 Y161.663 E5.49047
G1 X138.137 Y162.031 E5.52167
G1 X137.661 Y162.197 E5.53844
G1 X137.439 Y162.269 E5.5462
G1 X136.229 Y162.587 E5.58781
G1 X135.918 Y162.65 E5.59837
G1 X134.603 Y162.835 E5.64254
G1 X134.502 Y162.843 E5.64591
G1 X133.826 Y162.875 E5.66841
G1 X132.609 Y162.895 E5.7089
G1 X87.059 Y162.893 E7.2239
G1 X86.534 Y162.886 E7.24136
G1 X86.171 Y162.875 E7.25344
G1 X85.848 Y162.86 E7.26419
G1 X84.807 Y162.762 E7.29897
G1 X84.442 Y162.71 E7.31123
G1 X83.52 Y162.538 E7.34243
G1 X82.755 Y162.333 E7.36877
G1 X82.531 Y162.264 E7.37657
G1 X81.314 Y161.809 E7.41978
G1 X81.095 Y161.712 E7.42775
G1 X79.982 Y161.141 E7.46935
G1 X79.798 Y161.033 E7.47645
G1 X78.715 Y160.308 E7.51979
G1 X78.495 Y160.141 E7.52898
G1 X77.509 Y159.296 E7.57217
G1 X77.339 Y159.132 E7.58003
G1 X76.438 Y158.15 E7.62435
G1 X76.265 Y157.937 E7.63348
G1 X75.479 Y156.839 E7.67839
G1 X75.33 Y156.601 E7.68773
G1 X74.679 Y155.401 E7.73314
G1 X74.593 Y155.216 E7.73992
G1 X74.234 Y154.349 E7.77114
G1 X74.063 Y153.842 E7.78893
G1 X73.99 Y153.607 E7.79712
G1 X73.758 Y152.735 E7.82713
G1 X73.703 Y152.488 E7.83554
G1 X73.534 Y151.535 E7.86774
G1 X73.522 Y151.444 E7.87079
G1 X73.43 Y150.221 E7.91158
G1 X73.407 Y149.046 E7.95067
G1 X73.405 Y148.831 E7.95782
G1 X73.407 Y78.35 E10.30203
G1 X73.416 Y77.718 E10.32305
G1 X73.426 Y77.385 E10.33413
G1 X73.438 Y77.116 E10.34309
G1 X73.565 Y75.868 E10.38481
G1 X73.605 Y75.618 E10.39323
G1 X73.904 Y74.287 E10.4386
G1 X73.981 Y74.022 E10.44778
G1 X74.426 Y72.775 E10.49182
G1 X74.519 Y72.557 E10.4997
G1 X75.124 Y71.35 E10.54461
G1 X75.261 Y71.114 E10.55368
G1 X76.007 Y69.993 E10.59847
G1 X76.151 Y69.803 E10.6064
G1 X76.97 Y68.843 E10.64837
G0 F6000 X77.259 Y69.119
G1 F1200 X77.458 Y68.911 E10.65794
G1 X78.123 Y68.274 E10.68857
G1 X78.615 Y67.867 E10.70981
G1 X78.821 Y67.707 E10.71849
G1 X79.798 Y67.033 E10.75796
G1 X79.929 Y66.953 E10.76307
G1 X80.893 Y66.431 E10.79953
G1 X81.172 Y66.298 E10.80981
G1 X82.019 Y65.938 E10.84042
G1 X82.463 Y65.783 E10.85606
G1 X82.685 Y65.711 E10.86382
G1 X83.85 Y65.405 E10.90389
G1 X84.161 Y65.342 E10.91444
G1 X85.429 Y65.164 E10.95703
G1 X85.53 Y65.156 E10.9604
G1 X86.181 Y65.125 E10.98207
G1 X87.391 Y65.105 E11.02232
G1 X132.933 Y65.107 E12.53706
G1 X133.462 Y65.114 E12.55465
G1 X133.82 Y65.125 E12.56657
G1 X134.139 Y65.14 E12.57719
G1 X135.132 Y65.233 E12.61036
G1 X135.498 Y65.285 E12.62266
G1 X136.403 Y65.454 E12.65328
G1 X137.127 Y65.65 E12.67822
G1 X137.351 Y65.719 E12.68602
G1 X138.47 Y66.133 E12.7257
G1 X138.674 Y66.222 E12.73311
G1 X139.773 Y66.78 E12.7741
G1 X139.972 Y66.896 E12.78176
G1 X141.043 Y67.611 E12.82459
G1 X141.263 Y67.778 E12.83378
G1 X142.213 Y68.591 E12.87537
G1 X142.382 Y68.754 E12.88318
G1 X143.247 Y69.697 E12.92574
G1 X143.421 Y69.911 E12.93491
G1 X144.188 Y70.983 E12.97875
G1 X144.336 Y71.22 E12.98804
G1 X144.948 Y72.347 E13.0307
G1 X145.034 Y72.531 E13.03745
G1 X145.387 Y73.381 E13.06807
G1 X145.549 Y73.86 E13.08488
G1 X145.623 Y74.097 E13.09314
G1 X145.842 Y74.911 E13.12118
G1 X145.896 Y75.149 E13.1293
G1 X146.04 Y75.908 E13.15499
G1 X146.136 Y76.767 E13.18374
G1 X146.159 Y77.09 E13.19451
G1 X146.185 Y77.679 E13.21412
G1 X146.194 Y78.359 E13.23674
G1 X146.193 Y149.244 E15.59438
G1 X146.184 Y149.877 E15.61544
G1 X146.174 Y150.2 E15.62619
G1 X146.162 Y150.468 E15.63511
G1 X146.04 Y151.669 E15.67526
G1 X146 Y151.919 E15.68368
G1 X145.712 Y153.202 E15.72742
G1 X145.635 Y153.467 E15.73659
G1 X145.206 Y154.668 E15.77901
G1 X145.113 Y154.886 E15.78689
G1 X144.53 Y156.049 E15.83016
G1 X144.393 Y156.285 E15.83924
G1 X143.674 Y157.366 E15.88242
G1 X143.53 Y157.556 E15.89035
G1 X142.721 Y158.501 E15.93173
G1 X142.519 Y158.711 E15.94142
G1 X141.853 Y159.347 E15.97205
G1 X141.405 Y159.717 E15.99137
G1 X141.204 Y159.874 E15.99985
G1 X140.193 Y160.573 E16.04073
G1 X140.06 Y160.654 E16.04591
G1 X139.107 Y161.169 E16.08194
G1 X138.828 Y161.302 E16.09222
G1 X137.981 Y161.662 E16.12283
G1 X137.537 Y161.817 E16.13847
G1 X137.315 Y161.889 E16.14624
G1 X136.15 Y162.195 E16.1863
G1 X135.839 Y162.258 E16.19685
G1 X134.571 Y162.436 E16.23944
G1 X134.47 Y162.444 E16.24281
G1 X133.819 Y162.475 E16.26449
G1 X132.609 Y162.495 E16.30474
G1 X87.065 Y162.493 E17.81954
G1 X86.54 Y162.486 E17.837
G1 X86.189 Y162.476 E17.84868
G1 X85.866 Y162.461 E17.85943
G1 X84.863 Y162.366 E17.89294
G1 X84.498 Y162.314 E17.90521
G1 X83.593 Y162.145 E17.93583
G1 X82.873 Y161.95 E17.96064
G1 X82.649 Y161.881 E17.96843
G1 X81.476 Y161.443 E18.01008
G1 X81.257 Y161.346 E18.01804
G1 X80.184 Y160.796 E18.05815
G1 X80 Y160.688 E18.06524
G1 X78.957 Y159.989 E18.107
G1 X78.737 Y159.822 E18.11619
G1 X77.787 Y159.008 E18.1578
G1 X77.617 Y158.844 E18.16566
G1 X76.748 Y157.898 E18.20838
G1 X76.575 Y157.685 E18.21751
G1 X75.818 Y156.627 E18.26078
G1 X75.669 Y156.389 E18.27012
G1 X75.042 Y155.232 E18.31389
G1 X74.956 Y155.047 E18.32067
G1 X74.604 Y154.196 E18.3513
G1 X74.445 Y153.724 E18.36787
G1 X74.372 Y153.489 E18.37605
G1 X74.148 Y152.648 E18.405
G1 X74.093 Y152.401 E18.41341
G1 X73.931 Y151.483 E18.44442
G1 X73.919 Y151.392 E18.44747
G1 X73.83 Y150.213 E18.4868
G1 X73.807 Y149.038 E18.52589
G1 X73.805 Y148.831 E18.53277
G1 X73.807 Y78.356 E20.87678
G1 X73.816 Y77.724 E20.8978
G1 X73.826 Y77.403 E20.90848
G1 X73.838 Y77.134 E20.91744
G1 X73.96 Y75.931 E20.95766
G1 X74 Y75.681 E20.96608
G1 X74.288 Y74.398 E21.00981
G1 X74.365 Y74.133 E21.01899
G1 X74.794 Y72.932 E21.06141
G1 X74.887 Y72.714 E21.06929
G1 X75.47 Y71.551 E21.11256
G1 X75.607 Y71.315 E21.12164
G1 X76.326 Y70.234 E21.16482
G1 X76.47 Y70.044 E21.17275
G1 X77.259 Y69.119 E21.21318
G0 F6000 X77.548 Y69.396
G1 F1200 X77.747 Y69.188 E21.22276
G1 X78.399 Y68.563 E21.2528
G1 X78.86 Y68.183 E21.27267
G1 X79.066 Y68.023 E21.28134
G1 X80.007 Y67.374 E21.31936
G1 X80.138 Y67.294 E21.32447
G1 X81.065 Y66.792 E21.35953
G1 X81.344 Y66.659 E21.36981
G1 X82.586 Y66.164 E21.41428
G1 X82.808 Y66.092 E21.42204
G1 X83.93 Y65.797 E21.46063
G1 X84.241 Y65.734 E21.47118
G1 X85.461 Y65.563 E21.51216
G1 X85.562 Y65.555 E21.51553
G1 X86.188 Y65.525 E21.53637
G1 X87.391 Y65.505 E21.57639
G1 X132.928 Y65.507 E23.09096
G1 X133.457 Y65.514 E23.10855
G1 X133.801 Y65.524 E23.12
G1 X134.12 Y65.539 E23.13062
G1 X135.076 Y65.629 E23.16256
G1 X135.442 Y65.681 E23.17485
G1 X136.329 Y65.848 E23.20487
G1 X137.01 Y66.032 E23.22834
G1 X137.234 Y66.101 E23.23613
G1 X138.31 Y66.5 E23.2743
G1 X138.514 Y66.589 E23.2817
G1 X139.572 Y67.126 E23.32117
G1 X139.771 Y67.242 E23.32883
G1 X140.801 Y67.93 E23.37002
G1 X141.021 Y68.097 E23.37921
G1 X141.935 Y68.879 E23.41922
G1 X142.104 Y69.042 E23.42703
G1 X142.937 Y69.949 E23.46799
G1 X143.111 Y70.163 E23.47716
G1 X143.849 Y71.195 E23.51936
G1 X143.997 Y71.432 E23.52865
G1 X144.586 Y72.516 E23.56968
G1 X144.672 Y72.7 E23.57644
G1 X145.017 Y73.534 E23.60646
G1 X145.167 Y73.979 E23.62208
G1 X145.241 Y74.216 E23.63034
G1 X145.452 Y74.999 E23.65731
G1 X145.506 Y75.237 E23.66542
G1 X145.644 Y75.969 E23.6902
G1 X145.737 Y76.796 E23.71788
G1 X145.76 Y77.119 E23.72865
G1 X145.785 Y77.685 E23.74749
G1 X145.794 Y78.359 E23.76991
G1 X145.793 Y149.238 E26.12736
G1 X145.784 Y149.871 E26.14841
G1 X145.775 Y150.182 E26.15876
G1 X145.763 Y150.45 E26.16768
G1 X145.645 Y151.606 E26.20633
G1 X145.605 Y151.856 E26.21475
G1 X145.328 Y153.09 E26.25682
G1 X145.251 Y153.355 E26.266
G1 X144.838 Y154.511 E26.30683
G1 X144.745 Y154.729 E26.31471
G1 X144.184 Y155.848 E26.35634
G1 X144.047 Y156.084 E26.36542
G1 X143.355 Y157.124 E26.40697
G1 X143.211 Y157.314 E26.4149
G1 X142.433 Y158.224 E26.45472
G1 X142.231 Y158.434 E26.46441
G1 X141.577 Y159.057 E26.49445
G1 X141.159 Y159.401 E26.51245
G1 X140.958 Y159.558 E26.52094
G1 X139.985 Y160.232 E26.56031
G1 X139.852 Y160.313 E26.56548
G1 X138.935 Y160.808 E26.60014
G1 X138.656 Y160.941 E26.61042
G1 X137.414 Y161.436 E26.65489
G1 X137.192 Y161.508 E26.66266
G1 X136.07 Y161.803 E26.70124
G1 X135.759 Y161.866 E26.7118
G1 X134.539 Y162.037 E26.75277
G1 X134.438 Y162.045 E26.75614
G1 X133.812 Y162.075 E26.77698
G1 X132.609 Y162.095 E26.817
G1 X87.07 Y162.093 E28.33163
G1 X86.545 Y162.086 E28.3491
G1 X86.208 Y162.076 E28.36031
G1 X85.885 Y162.061 E28.37107
G1 X84.919 Y161.97 E28.40334
G1 X84.554 Y161.918 E28.4156
G1 X83.667 Y161.751 E28.44562
G1 X82.99 Y161.568 E28.46895
G1 X82.766 Y161.499 E28.47674
G1 X81.638 Y161.077 E28.5168
G1 X81.419 Y160.98 E28.52476
G1 X80.387 Y160.451 E28.56334
G1 X80.203 Y160.343 E28.57043
G1 X79.199 Y159.67 E28.61063
G1 X78.979 Y159.503 E28.61982
G1 X78.064 Y158.72 E28.65988
G1 X77.894 Y158.556 E28.66773
G1 X77.059 Y157.646 E28.70881
G1 X76.886 Y157.433 E28.71794
G1 X76.158 Y156.415 E28.75956
G1 X76.009 Y156.177 E28.7689
G1 X75.405 Y155.064 E28.81102
G1 X75.319 Y154.879 E28.8178
G1 X74.974 Y154.044 E28.84785
G1 X74.827 Y153.605 E28.86325
G1 X74.754 Y153.37 E28.87144
G1 X74.539 Y152.561 E28.89928
G1 X74.484 Y152.314 E28.90769
G1 X74.328 Y151.431 E28.93752
G1 X74.316 Y151.34 E28.94057
G1 X74.23 Y150.206 E28.9784
G1 X74.207 Y149.031 E29.01748
G1 X74.205 Y148.831 E29.02414
G1 X74.207 Y78.362 E31.36795
G1 X74.216 Y77.73 E31.38897
G1 X74.225 Y77.42 E31.39928
G1 X74.237 Y77.151 E31.40824
G1 X74.355 Y75.994 E31.44692
G1 X74.395 Y75.744 E31.45534
G1 X74.672 Y74.51 E31.49741
G1 X74.749 Y74.245 E31.50658
G1 X75.162 Y73.089 E31.54741
G1 X75.255 Y72.871 E31.5553
G1 X75.816 Y71.752 E31.59693
G1 X75.953 Y71.516 E31.60601
G1 X76.645 Y70.476 E31.64755
G1 X76.789 Y70.286 E31.65548
G1 X77.548 Y69.396 E31.69439
G1 F2700 E26.69439
;MESH:Drawer_4_v2.stl
G0 F6000 X83.76 Y77.469
G0 X84.825 Y77.824
G0 X86.787 Y149.511
G0 X133.338 Y149.695
;TYPE:WALL-INNER
G1 F2700 E31.69439
G1 F1200 X133.177 Y149.695 E31.69974
G1 X86.607 Y149.693 E33.24867
G1 X86.605 Y149.686 E33.24891
G1 X86.606 Y78.118 E35.62927
G1 X86.606 Y77.956 E35.63466
G1 X86.662 Y77.905 E35.63718
G1 X86.824 Y77.905 E35.64256
G1 X133.386 Y77.907 E37.19122
G1 X133.394 Y77.93 E37.19203
G1 X133.394 Y149.48 E39.5718
G1 X133.394 Y149.641 E39.57715
G1 X133.385 Y149.685 E39.57864
G1 X133.338 Y149.695 E39.58024
G0 F6000 X133.379 Y150.095
G1 F1200 X86.578 Y150.094 E41.13685
G1 X86.42 Y150.065 E41.14219
G1 X86.256 Y149.94 E41.14905
G1 X86.205 Y149.733 E41.15614
G1 X86.206 Y77.916 E43.54479
G1 X86.264 Y77.646 E43.55397
G1 X86.363 Y77.56 E43.55833
G1 X86.578 Y77.515 E43.56564
G1 X86.621 Y77.505 E43.56711
G1 X133.418 Y77.506 E45.12358
G1 X133.584 Y77.537 E45.1292
G1 X133.713 Y77.624 E45.13437
G1 X133.794 Y77.864 E45.1428
G1 X133.794 Y149.683 E47.53151
G1 X133.736 Y149.954 E47.54072
G1 X133.637 Y150.04 E47.54509
G1 X133.469 Y150.075 E47.55079
G1 X133.425 Y150.084 E47.55229
G1 X133.379 Y150.095 E47.55386
G0 F6000 X133.421 Y150.495
G1 F1200 X86.544 Y150.494 E49.113
G1 X86.265 Y150.443 E49.12243
G1 X85.987 Y150.255 E49.13359
G1 X85.891 Y150.115 E49.13924
G1 X85.812 Y149.849 E49.14847
G1 X85.805 Y149.745 E49.15193
G1 X85.806 Y77.874 E51.54237
G1 X85.89 Y77.485 E51.55561
G1 X85.981 Y77.353 E51.56094
G1 X86.187 Y77.189 E51.5697
G1 X86.279 Y77.17 E51.57282
G1 X86.579 Y77.105 E51.58303
G1 X133.455 Y77.106 E53.14214
G1 X133.738 Y77.159 E53.15171
G1 X134.008 Y77.34 E53.16252
G1 X134.148 Y77.566 E53.17137
G1 X134.194 Y77.829 E53.18025
G1 X134.194 Y149.725 E55.57152
G1 X134.11 Y150.115 E55.58479
G1 X134.019 Y150.247 E55.59012
G1 X133.813 Y150.411 E55.59888
G1 X133.721 Y150.43 E55.602
G1 X133.421 Y150.495 E55.61221
G0 F6000 X133.443 Y150.895
G1 F1200 X86.533 Y150.894 E57.17244
G1 X86.382 Y150.884 E57.17748
G1 X86.119 Y150.819 E57.18649
G1 X85.877 Y150.691 E57.19559
G1 X85.723 Y150.554 E57.20245
G1 X85.684 Y150.52 E57.20417
G1 X85.526 Y150.29 E57.21345
G1 X85.416 Y149.919 E57.22632
G1 X85.414 Y149.877 E57.22772
G1 X85.405 Y149.76 E57.23162
G1 X85.406 Y77.854 E59.62322
G1 X85.443 Y77.535 E59.63391
G1 X85.534 Y77.296 E59.64241
G1 X85.684 Y77.078 E59.65121
G1 X85.987 Y76.837 E59.66409
G1 X86.235 Y76.743 E59.67291
G1 X86.557 Y76.705 E59.6837
G1 X133.467 Y76.706 E61.24393
G1 X133.616 Y76.716 E61.24889
G1 X133.881 Y76.782 E61.25798
G1 X134.127 Y76.911 E61.26722
G1 X134.313 Y77.076 E61.27549
G1 X134.474 Y77.31 E61.28493
G1 X134.529 Y77.438 E61.28957
G1 X134.586 Y77.69 E61.29816
G1 X134.594 Y77.82 E61.30249
G1 X134.594 Y149.745 E63.69473
G1 X134.557 Y150.065 E63.70544
G1 X134.466 Y150.304 E63.71395
G1 X134.316 Y150.522 E63.72275
G1 X134.013 Y150.763 E63.73563
G1 X133.765 Y150.857 E63.74445
G1 X133.443 Y150.895 E63.75523
G0 F6000 X133.465 Y151.295
G1 F1200 X86.522 Y151.294 E65.31656
G1 X86.323 Y151.281 E65.32319
G1 X85.973 Y151.195 E65.33518
G1 X85.646 Y151.021 E65.3475
G1 X85.384 Y150.788 E65.35916
G1 X85.356 Y150.747 E65.36081
G1 X85.175 Y150.485 E65.37141
G1 X85.16 Y150.448 E65.37273
G1 X85.089 Y150.285 E65.37865
G1 X85.019 Y149.976 E65.38919
G1 X85.007 Y149.788 E65.39545
G1 X85.005 Y149.773 E65.39595
G1 X85.006 Y77.833 E67.78869
G1 X85.052 Y77.44 E67.80185
G1 X85.177 Y77.109 E67.81362
G1 X85.383 Y76.81 E67.82569
G1 X85.614 Y76.604 E67.83599
G1 X85.806 Y76.478 E67.84363
G1 X86.094 Y76.37 E67.85386
G1 X86.14 Y76.352 E67.8555
G1 X86.187 Y76.347 E67.85707
