;FLAVOR:Marlin
;TIME:11099
;Filament used: 9.03123m
;Layer height: 0.16
;MINX:70.838
;MINY:58.63
;MINZ:0.2
;MAXX:148.638
;MAXY:161.43
;MAXZ:22.08
;Generated with Cura_SteamEngine 4.9.1
M140 S90
M105
M190 S90
M104 S260
M105
M109 S260
M82 ;absolute extrusion mode
M201 X500.00 Y500.00 Z100.00 E5000.00 ;Setup machine max acceleration
M203 X500.00 Y500.00 Z10.00 E50.00 ;Setup machine max feedrate
M204 P500.00 R1000.00 T500.00 ;Setup Print/Retract/Travel acceleration
M205 X8.00 Y8.00 Z0.40 E5.00 ;Setup Jerk
M220 S100 ;Reset Feedrate
M221 S100 ;Reset Flowrate

G28 ;Home

G92 E0 ;Reset Extruder
G1 Z2.0 F3000 ;Move Z Axis up
G1 X10.1 Y20 Z0.28 F5000.0 ;Move to start position
G1 X10.1 Y200.0 Z0.28 F1500.0 E15 ;Draw the first line
G1 X10.4 Y200.0 Z0.28 F5000.0 ;Move to side a little
G1 X10.4 Y20 Z0.28 F1500.0 E30 ;Draw the second line
G92 E0 ;Reset Extruder
G1 Z2.0 F3000 ;Move Z Axis up

G92 E0
G92 E0
G1 F2700 E-5
;LAYER_COUNT:131
;LAYER:0
M107
G0 F6000 X75.975 Y65.439 Z0.2
;TYPE:SKIRT
G1 F2700 E0
G1 F1200 X76.919 Y64.429 E0.04598
G1 X77.216 Y64.149 E0.05956
G1 X77.925 Y63.535 E0.09075
G1 X78.499 Y63.11 E0.11451
G1 X78.769 Y62.923 E0.12543
G1 X79.714 Y62.337 E0.16241
G1 X79.781 Y62.3 E0.16496
G1 X80.679 Y61.856 E0.19828
G1 X80.916 Y61.752 E0.20689
G1 X81.58 Y61.486 E0.23068
G1 X81.858 Y61.385 E0.24052
G1 X82.931 Y61.056 E0.27784
G1 X83.936 Y60.805 E0.3123
G1 X84.522 Y60.669 E0.33231
G1 X86.937 Y60.034 E0.41536
G1 X88.829 Y59.466 E0.48106
G1 X90.191 Y59.072 E0.52822
G1 X91.102 Y58.85 E0.55941
G1 X92.029 Y58.707 E0.5906
G1 X92.939 Y58.643 E0.62094
G1 X93.259 Y58.634 E0.63159
G1 X93.568 Y58.63 E0.64187
G1 X98.531 Y58.63 E0.80694
G1 X99.387 Y58.641 E0.83541
G1 X99.991 Y58.666 E0.85552
G1 X100.362 Y58.697 E0.8679
G1 X100.894 Y58.75 E0.88568
G1 X103.438 Y58.966 E0.9706
G1 X105.978 Y59.109 E1.05522
G1 X108.502 Y59.18 E1.1392
G1 X111.025 Y59.18 E1.22311
G1 X113.521 Y59.108 E1.30617
G1 X116.023 Y58.967 E1.38951
G1 X118.586 Y58.748 E1.47507
G1 X118.972 Y58.709 E1.48797
G1 X119.293 Y58.681 E1.49869
G1 X119.939 Y58.643 E1.52021
G1 X120.258 Y58.634 E1.53083
G1 X120.568 Y58.63 E1.54114
G1 X125.688 Y58.631 E1.71143
G1 X126.39 Y58.641 E1.73478
G1 X127.326 Y58.694 E1.76596
G1 X127.919 Y58.77 E1.78585
G1 X128.839 Y58.952 E1.81704
G1 X129.477 Y59.127 E1.83905
G1 X130.292 Y59.378 E1.86741
G1 X132.719 Y60.084 E1.95148
G1 X135.976 Y60.919 E2.06331
G1 X136.368 Y61.012 E2.07671
G1 X137.204 Y61.246 E2.10558
G1 X137.517 Y61.347 E2.11652
G1 X138.396 Y61.672 E2.14769
G1 X138.929 Y61.913 E2.16715
G1 X139.113 Y62.002 E2.17395
G1 X140.146 Y62.571 E2.21317
G1 X140.489 Y62.785 E2.22662
G1 X141.262 Y63.315 E2.25779
G1 X141.683 Y63.647 E2.27562
G1 X141.852 Y63.787 E2.28292
G1 X142.844 Y64.717 E2.32815
G1 X143.134 Y65.025 E2.34222
G1 X143.747 Y65.735 E2.37342
G1 X144.196 Y66.343 E2.39856
G1 X144.373 Y66.601 E2.40896
G1 X144.979 Y67.593 E2.44763
G1 X145.019 Y67.667 E2.45042
G1 X145.415 Y68.479 E2.48047
G1 X145.508 Y68.691 E2.48817
G1 X145.771 Y69.345 E2.51162
G1 X145.877 Y69.636 E2.52192
G1 X146.16 Y70.53 E2.55311
G1 X146.273 Y70.99 E2.56886
G1 X146.324 Y71.217 E2.5766
G1 X146.476 Y72.034 E2.60424
G1 X146.499 Y72.191 E2.60952
G1 X146.583 Y72.945 E2.63475
G1 X146.634 Y73.608 E2.65687
G1 X146.866 Y76.169 E2.74239
G1 X147.163 Y78.674 E2.82629
G1 X147.528 Y81.142 E2.90927
G1 X148.157 Y84.599 E3.02614
G1 X148.411 Y85.858 E3.06886
G1 X148.557 Y86.784 E3.10004
G1 X148.623 Y87.699 E3.13055
G1 X148.633 Y88.029 E3.14153
G1 X148.638 Y88.36 E3.15254
G1 X148.638 Y93.467 E3.3224
G1 X148.628 Y94.182 E3.34618
G1 X148.575 Y95.118 E3.37737
G1 X148.497 Y95.729 E3.39785
G1 X148.431 Y96.149 E3.41199
G1 X148.063 Y98.734 E3.49884
G1 X147.78 Y101.216 E3.58192
G1 X147.566 Y103.731 E3.66588
G1 X147.425 Y106.213 E3.74856
G1 X147.353 Y108.77 E3.83364
G1 X147.353 Y111.259 E3.91642
G1 X147.425 Y113.789 E4.00061
G1 X147.568 Y116.329 E4.08522
G1 X147.777 Y118.789 E4.16734
G1 X148.063 Y121.309 E4.25169
G1 X148.434 Y123.911 E4.33911
G1 X148.514 Y124.451 E4.35726
G1 X148.623 Y125.699 E4.39893
G1 X148.633 Y126.032 E4.41001
G1 X148.638 Y126.36 E4.42092
G1 X148.638 Y131.467 E4.59078
G1 X148.628 Y132.182 E4.61457
G1 X148.575 Y133.118 E4.64575
G1 X148.414 Y134.19 E4.6818
G1 X147.879 Y136.861 E4.7724
G1 X147.459 Y139.313 E4.85515
G1 X147.1 Y141.838 E4.93997
G1 X146.814 Y144.361 E5.02442
G1 X146.625 Y146.55 E5.0975
G1 X146.577 Y147.183 E5.11862
G1 X146.394 Y148.508 E5.1631
G1 X146.341 Y148.773 E5.17209
G1 X146.027 Y149.984 E5.2137
G1 X145.926 Y150.298 E5.22467
G1 X145.601 Y151.178 E5.25587
G1 X145.338 Y151.757 E5.27703
G1 X145.233 Y151.972 E5.28498
G1 X144.669 Y152.987 E5.3236
G1 X144.496 Y153.263 E5.33444
G1 X143.757 Y154.303 E5.37687
G1 X143.591 Y154.51 E5.3857
G1 X142.974 Y155.216 E5.41688
G1 X142.551 Y155.637 E5.43673
G1 X142.243 Y155.927 E5.4508
G1 X141.533 Y156.54 E5.482
G1 X140.908 Y157 E5.50781
G1 X140.649 Y157.177 E5.51825
G1 X139.702 Y157.757 E5.55518
G1 X139.623 Y157.8 E5.55817
G1 X138.756 Y158.223 E5.59026
G1 X138.57 Y158.304 E5.59701
G1 X137.963 Y158.547 E5.61875
G1 X137.772 Y158.617 E5.62552
G1 X137.028 Y158.86 E5.65155
G1 X136.597 Y158.984 E5.66647
G1 X136.235 Y159.082 E5.67894
G1 X135.378 Y159.296 E5.70832
G1 X134.722 Y159.45 E5.73073
G1 X132.287 Y160.097 E5.81453
G1 X130.631 Y160.596 E5.87206
G1 X129.319 Y160.979 E5.91751
G1 X128.409 Y161.203 E5.94868
G1 X127.482 Y161.349 E5.9799
G1 X126.571 Y161.415 E6.01028
G1 X126.242 Y161.425 E6.02122
G1 X125.908 Y161.43 E6.03233
G1 X120.787 Y161.429 E6.20266
G1 X120.09 Y161.419 E6.22584
G1 X119.514 Y161.396 E6.24502
G1 X119.111 Y161.363 E6.25847
G1 X118.568 Y161.309 E6.27661
G1 X116.038 Y161.094 E6.36107
G1 X113.499 Y160.951 E6.44565
G1 X110.974 Y160.88 E6.52966
G1 X108.45 Y160.88 E6.61361
G1 X105.955 Y160.952 E6.69663
G1 X103.452 Y161.093 E6.78001
G1 X100.89 Y161.312 E6.86553
G1 X100.507 Y161.351 E6.87834
G1 X100.187 Y161.379 E6.88902
G1 X99.537 Y161.417 E6.91068
G1 X99.217 Y161.426 E6.92133
G1 X98.908 Y161.43 E6.9316
G1 X93.789 Y161.429 E7.10186
G1 X93.084 Y161.419 E7.12531
G1 X92.148 Y161.366 E7.1565
G1 X91.219 Y161.233 E7.18771
G1 X90.024 Y160.939 E7.22864
G1 X89.252 Y160.703 E7.25549
G1 X86.765 Y159.98 E7.34163
G1 X83.897 Y159.24 E7.44015
G1 X83.178 Y159.066 E7.46475
G1 X82.578 Y158.902 E7.48544
G1 X82.139 Y158.769 E7.5007
G1 X81.253 Y158.46 E7.53191
G1 X80.543 Y158.147 E7.55771
G1 X80.336 Y158.047 E7.56536
G1 X79.239 Y157.438 E7.60709
G1 X78.964 Y157.264 E7.61791
G1 X77.964 Y156.549 E7.6588
G1 X77.757 Y156.383 E7.66763
G1 X77.051 Y155.766 E7.69881
G1 X76.634 Y155.347 E7.71847
G1 X76.355 Y155.051 E7.732
G1 X75.742 Y154.342 E7.76318
G1 X75.322 Y153.776 E7.78662
G1 X75.134 Y153.505 E7.79759
G1 X74.47 Y152.418 E7.83995
G1 X74.431 Y152.345 E7.84271
G1 X74.067 Y151.598 E7.87034
G1 X73.922 Y151.269 E7.8823
G1 X73.49 Y150.119 E7.92316
G1 X73.454 Y150.004 E7.92717
G1 X73.232 Y149.185 E7.95539
G1 X73.154 Y148.846 E7.96696
G1 X72.962 Y147.765 E8.00348
G1 X72.954 Y147.702 E8.00559
G1 X72.896 Y147.128 E8.02478
G1 X72.861 Y146.656 E8.04052
G1 X72.636 Y144.109 E8.12556
G1 X72.342 Y141.591 E8.20988
G1 X71.983 Y139.13 E8.2926
G1 X71.318 Y135.453 E8.41688
G1 X71.065 Y134.198 E8.45947
G1 X70.919 Y133.272 E8.49064
G1 X70.853 Y132.362 E8.52099
G1 X70.843 Y132.035 E8.53187
G1 X70.838 Y131.701 E8.54298
G1 X70.838 Y126.592 E8.71291
G1 X70.848 Y125.876 E8.73672
G1 X70.901 Y124.94 E8.76791
G1 X70.98 Y124.322 E8.78863
G1 X71.049 Y123.885 E8.80334
G1 X71.413 Y121.326 E8.88931
G1 X71.696 Y118.844 E8.9724
G1 X71.91 Y116.329 E9.05635
G1 X72.051 Y113.847 E9.13903
G1 X72.123 Y111.29 E9.22411
G1 X72.123 Y108.801 E9.3069
G1 X72.051 Y106.269 E9.39115
G1 X71.908 Y103.732 E9.47566
G1 X71.699 Y101.267 E9.55794
G1 X71.414 Y98.759 E9.6419
G1 X71.042 Y96.149 E9.72958
G1 X71.004 Y95.899 E9.73799
G1 X70.954 Y95.543 E9.74995
G1 X70.852 Y94.328 E9.7905
G1 X70.843 Y94.014 E9.80095
G1 X70.838 Y93.701 E9.81136
G1 X70.838 Y88.592 E9.98129
G1 X70.848 Y87.878 E10.00504
G1 X70.901 Y86.942 E10.03622
G1 X71.061 Y85.874 E10.07214
G1 X71.601 Y83.174 E10.16372
G1 X72.022 Y80.712 E10.24679
G1 X72.378 Y78.201 E10.33115
G1 X72.66 Y75.709 E10.41456
G1 X72.852 Y73.499 E10.48834
G1 X72.895 Y72.915 E10.50782
G1 X73.037 Y71.792 E10.54547
G1 X73.071 Y71.602 E10.55189
G1 X73.396 Y70.272 E10.59742
G1 X73.536 Y69.822 E10.6131
G1 X73.852 Y68.939 E10.64429
G1 X74.162 Y68.247 E10.66951
G1 X74.238 Y68.092 E10.67525
G1 X74.803 Y67.079 E10.71383
G1 X75.008 Y66.753 E10.72664
G1 X75.83 Y65.615 E10.77333
G1 X75.975 Y65.439 E10.78092
G0 F6000 X76.284 Y65.693
G1 F1200 X77.194 Y64.72 E10.82523
G1 X77.491 Y64.44 E10.8388
G1 X78.187 Y63.838 E10.86941
G1 X78.727 Y63.439 E10.89174
G1 X78.997 Y63.252 E10.90266
G1 X79.908 Y62.687 E10.93832
G1 X79.975 Y62.65 E10.94086
G1 X80.84 Y62.222 E10.97296
G1 X81.077 Y62.118 E10.98157
G1 X81.716 Y61.862 E11.00447
G1 X81.994 Y61.761 E11.0143
G1 X83.028 Y61.444 E11.05028
G1 X83.839 Y61.24 E11.07809
G1 X84.618 Y61.058 E11.1047
G1 X87.037 Y60.422 E11.18789
G1 X88.94 Y59.85 E11.25398
G1 X90.302 Y59.456 E11.30114
G1 X91.197 Y59.239 E11.33177
G1 X92.107 Y59.101 E11.36238
G1 X92.95 Y59.043 E11.39048
G1 X93.27 Y59.034 E11.40113
G1 X93.568 Y59.03 E11.41104
G1 X98.531 Y59.03 E11.57611
G1 X99.381 Y59.041 E11.60439
G1 X99.965 Y59.065 E11.62383
G1 X100.323 Y59.095 E11.63578
G1 X100.818 Y59.144 E11.65232
G1 X103.452 Y59.369 E11.74025
G1 X105.945 Y59.509 E11.8233
G1 X108.491 Y59.58 E11.90801
G1 X111.002 Y59.58 E11.99152
G1 X113.553 Y59.507 E12.07641
G1 X116.081 Y59.364 E12.16062
G1 X118.612 Y59.147 E12.24511
G1 X119.007 Y59.107 E12.25832
G1 X119.328 Y59.079 E12.26903
G1 X119.95 Y59.043 E12.28976
G1 X120.269 Y59.034 E12.30037
G1 X120.568 Y59.03 E12.31032
G1 X125.682 Y59.031 E12.48041
G1 X126.384 Y59.041 E12.50376
G1 X127.303 Y59.094 E12.53438
G1 X127.858 Y59.165 E12.55299
G1 X128.761 Y59.345 E12.58361
G1 X129.359 Y59.509 E12.60424
G1 X130.19 Y59.764 E12.63315
G1 X132.63 Y60.475 E12.71768
G1 X135.828 Y61.295 E12.82748
G1 X136.276 Y61.401 E12.8428
G1 X137.081 Y61.626 E12.8706
G1 X137.394 Y61.727 E12.88153
G1 X138.257 Y62.048 E12.91216
G1 X138.755 Y62.273 E12.93034
G1 X138.939 Y62.362 E12.93713
G1 X139.934 Y62.911 E12.97493
G1 X140.277 Y63.125 E12.98838
G1 X141.036 Y63.646 E13.019
G1 X141.428 Y63.955 E13.0356
G1 X141.597 Y64.095 E13.0429
G1 X142.552 Y64.992 E13.08648
G1 X142.842 Y65.3 E13.10055
G1 X143.444 Y65.997 E13.13118
G1 X143.866 Y66.569 E13.15482
G1 X144.043 Y66.827 E13.16523
G1 X144.627 Y67.784 E13.20251
G1 X144.667 Y67.858 E13.20531
G1 X145.049 Y68.64 E13.23426
G1 X145.142 Y68.852 E13.24196
G1 X145.395 Y69.482 E13.26454
G1 X145.501 Y69.773 E13.27484
G1 X145.883 Y71.077 E13.32003
G1 X145.934 Y71.304 E13.32777
G1 X146.08 Y72.092 E13.35443
G1 X146.103 Y72.249 E13.3597
G1 X146.184 Y72.975 E13.384
G1 X146.23 Y73.578 E13.40412
G1 X146.469 Y76.216 E13.49222
G1 X146.77 Y78.748 E13.57702
G1 X147.129 Y81.183 E13.65889
G1 X147.768 Y84.692 E13.77752
G1 X148.019 Y85.937 E13.81976
G1 X148.161 Y86.846 E13.85036
G1 X148.223 Y87.711 E13.8792
G1 X148.233 Y88.041 E13.89018
G1 X148.238 Y88.36 E13.90079
G1 X148.238 Y93.461 E14.07045
G1 X148.228 Y94.176 E14.09424
G1 X148.175 Y95.095 E14.12485
G1 X148.102 Y95.667 E14.14403
G1 X148.025 Y96.159 E14.1606
G1 X147.668 Y98.665 E14.24479
G1 X147.383 Y101.173 E14.32874
G1 X147.167 Y103.711 E14.41346
G1 X147.025 Y106.213 E14.49681
G1 X146.953 Y108.759 E14.58153
G1 X146.953 Y111.27 E14.66504
G1 X147.025 Y113.824 E14.75002
G1 X147.166 Y116.316 E14.83304
G1 X147.383 Y118.867 E14.91819
G1 X147.663 Y121.339 E15.00094
G1 X148.039 Y123.976 E15.08953
G1 X148.118 Y124.508 E15.10742
G1 X148.223 Y125.711 E15.14758
G1 X148.233 Y126.044 E15.15866
G1 X148.238 Y126.36 E15.16918
G1 X148.238 Y131.461 E15.33884
G1 X148.228 Y132.176 E15.36262
G1 X148.175 Y133.095 E15.39324
G1 X148.022 Y134.112 E15.42744
G1 X147.486 Y136.787 E15.51818
G1 X147.064 Y139.251 E15.60133
G1 X146.7 Y141.808 E15.68723
G1 X146.419 Y144.284 E15.77011
G1 X146.226 Y146.519 E15.84472
G1 X146.178 Y147.152 E15.86584
G1 X146.002 Y148.43 E15.90875
G1 X145.949 Y148.695 E15.91773
G1 X145.646 Y149.862 E15.95784
G1 X145.545 Y150.176 E15.96881
G1 X145.225 Y151.039 E15.99942
G1 X144.979 Y151.582 E16.01925
G1 X144.874 Y151.797 E16.02721
G1 X144.33 Y152.775 E16.06443
G1 X144.157 Y153.051 E16.07526
G1 X143.445 Y154.053 E16.11615
G1 X143.279 Y154.26 E16.12497
G1 X142.673 Y154.952 E16.15556
G1 X142.276 Y155.345 E16.17414
G1 X141.968 Y155.635 E16.18821
G1 X141.271 Y156.237 E16.21885
G1 X140.683 Y156.67 E16.24313
G1 X140.424 Y156.847 E16.25357
G1 X139.511 Y157.405 E16.28916
G1 X139.432 Y157.448 E16.29215
G1 X138.596 Y157.856 E16.32309
G1 X138.41 Y157.937 E16.32984
G1 X137.826 Y158.172 E16.35077
G1 X137.635 Y158.242 E16.35754
G1 X136.918 Y158.476 E16.38262
G1 X136.487 Y158.6 E16.39754
G1 X136.137 Y158.694 E16.40959
G1 X135.286 Y158.906 E16.43876
G1 X134.632 Y159.06 E16.46111
G1 X132.223 Y159.7 E16.54401
G1 X130.519 Y160.212 E16.60319
G1 X129.207 Y160.595 E16.64865
G1 X128.313 Y160.815 E16.67927
G1 X127.403 Y160.956 E16.7099
G1 X126.559 Y161.015 E16.73804
G1 X126.23 Y161.025 E16.74899
G1 X125.908 Y161.03 E16.7597
G1 X120.793 Y161.029 E16.92983
G1 X120.096 Y161.019 E16.95301
G1 X119.539 Y160.996 E16.97155
G1 X119.151 Y160.965 E16.9845
G1 X118.649 Y160.915 E17.00128
G1 X116.024 Y160.691 E17.0889
G1 X113.532 Y160.551 E17.17192
G1 X110.985 Y160.48 E17.25666
G1 X108.474 Y160.48 E17.34018
G1 X105.922 Y160.553 E17.42509
G1 X103.395 Y160.696 E17.50928
G1 X100.864 Y160.913 E17.59377
G1 X100.472 Y160.953 E17.60687
G1 X100.152 Y160.981 E17.61756
G1 X99.526 Y161.017 E17.63841
G1 X99.206 Y161.026 E17.64906
G1 X98.908 Y161.03 E17.65897
G1 X93.795 Y161.029 E17.82903
G1 X93.09 Y161.019 E17.85248
G1 X92.171 Y160.966 E17.8831
G1 X91.259 Y160.833 E17.91375
G1 X90.141 Y160.557 E17.95205
G1 X89.333 Y160.31 E17.98016
G1 X86.888 Y159.6 E18.06484
G1 X83.947 Y158.84 E18.16587
G1 X83.272 Y158.677 E18.18896
G1 X82.694 Y158.52 E18.20888
G1 X82.255 Y158.387 E18.22414
G1 X81.386 Y158.082 E18.25477
G1 X80.717 Y157.787 E18.27909
G1 X80.51 Y157.687 E18.28674
G1 X79.453 Y157.1 E18.32695
G1 X79.178 Y156.926 E18.33777
G1 X78.214 Y156.237 E18.37718
G1 X78.007 Y156.071 E18.38601
G1 X77.315 Y155.465 E18.4166
G1 X76.925 Y155.073 E18.435
G1 X76.646 Y154.777 E18.44852
G1 X76.045 Y154.08 E18.47913
G1 X75.651 Y153.548 E18.50115
G1 X75.463 Y153.277 E18.51212
G1 X74.823 Y152.23 E18.55294
G1 X74.784 Y152.157 E18.55569
G1 X74.433 Y151.437 E18.58233
G1 X74.288 Y151.108 E18.59429
G1 X73.872 Y150 E18.63365
G1 X73.836 Y149.885 E18.63766
G1 X73.622 Y149.095 E18.66488
G1 X73.544 Y148.756 E18.67645
G1 X73.358 Y147.714 E18.71166
G1 X73.35 Y147.651 E18.71377
G1 X73.295 Y147.098 E18.73225
G1 X73.26 Y146.629 E18.7479
G1 X73.033 Y144.064 E18.83354
G1 X72.737 Y141.524 E18.91859
G1 X72.381 Y139.086 E19.00054
G1 X71.705 Y135.352 E19.12676
G1 X71.457 Y134.119 E19.16859
G1 X71.314 Y133.21 E19.19919
G1 X71.253 Y132.35 E19.22787
G1 X71.243 Y132.023 E19.23875
G1 X71.238 Y131.701 E19.24946
G1 X71.238 Y126.598 E19.41919
G1 X71.248 Y125.882 E19.443
G1 X71.301 Y124.963 E19.47362
G1 X71.376 Y124.384 E19.49304
G1 X71.44 Y123.976 E19.50677
G1 X71.808 Y121.395 E19.59349
G1 X72.093 Y118.887 E19.67744
G1 X72.309 Y116.349 E19.76216
G1 X72.451 Y113.847 E19.84551
G1 X72.523 Y111.301 E19.93022
G1 X72.523 Y108.79 E20.01374
G1 X72.451 Y106.236 E20.09872
G1 X72.311 Y103.746 E20.18167
G1 X72.092 Y101.186 E20.26713
G1 X71.814 Y98.729 E20.34937
G1 X71.437 Y96.084 E20.43823
G1 X71.4 Y95.843 E20.44634
G1 X71.35 Y95.487 E20.4583
G1 X71.251 Y94.317 E20.49735
G1 X71.242 Y94.003 E20.5078
G1 X71.238 Y93.701 E20.51784
G1 X71.238 Y88.598 E20.68757
G1 X71.248 Y87.884 E20.71132
G1 X71.301 Y86.964 E20.74197
G1 X71.453 Y85.952 E20.77601
G1 X71.994 Y83.247 E20.86776
G1 X72.419 Y80.764 E20.95154
G1 X72.773 Y78.266 E21.03546
G1 X73.062 Y75.714 E21.12088
G1 X73.249 Y73.547 E21.19322
G1 X73.294 Y72.945 E21.2133
G1 X73.431 Y71.863 E21.24957
G1 X73.465 Y71.673 E21.25599
G1 X73.778 Y70.391 E21.29989
G1 X73.918 Y69.941 E21.31556
G1 X74.229 Y69.075 E21.34617
G1 X74.522 Y68.423 E21.36994
G1 X74.598 Y68.268 E21.37568
G1 X75.142 Y67.292 E21.41285
G1 X75.347 Y66.966 E21.42565
G1 X76.139 Y65.869 E21.47066
G1 X76.284 Y65.693 E21.47824
